;FLAVOR:Marlin
;TIME:3724
;Filament used: 3.59655m
;Layer height: 0.28
;MINX:56.75
;MINY:39.764
;MINZ:0.28
;MAXX:178.25
;MAXY:91.764
;MAXZ:10.08
;Generated with Cura_SteamEngine 4.10.0
M140 S50
M105
M190 S50
M104 S200
M105
M109 S200
M82 ;absolute extrusion mode
; Ender 3 Custom Start G-code
G92 E0 ; Reset Extruder
G28 ; Home all axes
G1 Z2.0 F3000 ; Move Z Axis up little to prevent scratching of Heat Bed
G1 X0.1 Y20 Z0.3 F5000.0 ; Move to start position
G1 X0.1 Y200.0 Z0.3 F1500.0 E15 ; Draw the first line
G1 X0.4 Y200.0 Z0.3 F5000.0 ; Move to side a little
G1 X0.4 Y20 Z0.3 F1500.0 E30 ; Draw the second line
G92 E0 ; Reset Extruder
G1 Z2.0 F3000 ; Move Z Axis up little to prevent scratching of Heat Bed
G1 X5 Y20 Z0.3 F5000.0 ; Move over to prevent blob squish
G92 E0
G92 E0
G1 F2700 E-5
;LAYER_COUNT:36
;LAYER:0
M107
G0 F6000 X58.757 Y44.453 Z0.28
;TYPE:SKIRT
G1 F2700 E0
G1 F1200 X59.328 Y43.709 E0.04367
G1 X59.96 Y43.016 E0.08734
G1 X60.649 Y42.38 E0.13101
G1 X61.39 Y41.805 E0.17468
G1 X62.177 Y41.295 E0.21835
G1 X63.005 Y40.854 E0.26203
G1 X63.867 Y40.485 E0.30569
G1 X64.758 Y40.191 E0.34938
G1 X65.67 Y39.973 E0.39304
G1 X66.597 Y39.835 E0.43668
G1 X67.451 Y39.777 E0.47654
G1 X67.771 Y39.768 E0.49145
G1 X68.08 Y39.764 E0.50584
G1 X166.543 Y39.764 E5.09069
G1 X167.399 Y39.775 E5.13055
G1 X168.335 Y39.829 E5.17421
G1 X169.263 Y39.961 E5.21785
G1 X170.177 Y40.173 E5.26154
G1 X171.069 Y40.462 E5.3052
G1 X171.934 Y40.825 E5.34888
G1 X172.764 Y41.261 E5.39254
G1 X173.555 Y41.766 E5.43624
G1 X174.299 Y42.337 E5.47991
G1 X174.992 Y42.969 E5.52358
G1 X175.629 Y43.657 E5.56724
G1 X176.204 Y44.398 E5.61091
G1 X176.715 Y45.184 E5.65457
G1 X177.157 Y46.012 E5.69827
G1 X177.526 Y46.874 E5.74193
G1 X177.821 Y47.764 E5.78559
G1 X178.039 Y48.676 E5.82926
G1 X178.179 Y49.604 E5.87296
G1 X178.237 Y50.465 E5.91314
G1 X178.246 Y50.785 E5.92805
G1 X178.25 Y51.094 E5.94244
G1 X178.249 Y70.192 E6.83172
G1 X178.231 Y71.417 E6.88877
G1 X178.174 Y73.462 E6.98403
G1 X178.174 Y76.015 E7.10291
G1 X178.202 Y77.284 E7.16201
G1 X178.245 Y78.755 E7.23053
G1 X178.25 Y79.076 E7.24548
G1 X178.249 Y80.179 E7.29684
G1 X178.239 Y80.906 E7.3307
G1 X178.186 Y81.843 E7.3744
G1 X178.054 Y82.771 E7.41805
G1 X177.843 Y83.685 E7.46173
G1 X177.554 Y84.577 E7.50539
G1 X177.191 Y85.442 E7.54907
G1 X176.756 Y86.273 E7.59274
G1 X176.251 Y87.063 E7.6364
G1 X175.681 Y87.808 E7.68008
G1 X175.05 Y88.502 E7.72376
G1 X174.361 Y89.139 E7.76745
G1 X173.621 Y89.715 E7.81112
G1 X172.835 Y90.226 E7.85477
G1 X172.008 Y90.668 E7.89843
G1 X171.146 Y91.038 E7.94211
G1 X170.256 Y91.333 E7.98577
G1 X169.344 Y91.552 E8.02945
G1 X168.417 Y91.692 E8.0731
G1 X167.549 Y91.751 E8.11361
G1 X167.229 Y91.76 E8.12852
G1 X166.92 Y91.764 E8.14291
G1 X68.315 Y91.763 E12.73437
G1 X67.617 Y91.754 E12.76687
G1 X66.681 Y91.702 E12.81053
G1 X65.752 Y91.57 E12.85422
G1 X64.838 Y91.36 E12.89789
G1 X63.945 Y91.073 E12.94156
G1 X63.08 Y90.71 E12.98524
G1 X62.249 Y90.276 E13.0289
G1 X61.458 Y89.772 E13.07257
G1 X60.713 Y89.202 E13.11625
G1 X60.019 Y88.571 E13.15993
G1 X59.382 Y87.884 E13.20355
G1 X58.805 Y87.144 E13.24725
G1 X58.293 Y86.358 E13.29093
G1 X57.85 Y85.531 E13.33461
G1 X57.479 Y84.67 E13.37827
G1 X57.183 Y83.78 E13.42194
G1 X56.964 Y82.868 E13.46561
G1 X56.823 Y81.941 E13.50928
G1 X56.763 Y81.052 E13.55077
G1 X56.754 Y80.719 E13.56628
G1 X56.75 Y80.422 E13.58011
G1 X56.751 Y79.276 E13.63347
G1 X56.769 Y78.111 E13.68772
G1 X56.826 Y76.066 E13.78299
G1 X56.826 Y73.513 E13.90186
G1 X56.796 Y72.169 E13.96446
G1 X56.755 Y70.773 E14.02949
G1 X56.75 Y70.452 E14.04444
G1 X56.751 Y51.273 E14.9375
G1 X56.761 Y50.608 E14.96847
G1 X56.815 Y49.671 E15.01217
G1 X56.949 Y48.743 E15.05583
G1 X57.161 Y47.829 E15.09952
G1 X57.45 Y46.937 E15.14318
G1 X57.815 Y46.073 E15.18685
G1 X58.251 Y45.243 E15.23051
G1 X58.757 Y44.453 E15.27419
G0 F6000 X59.153 Y44.586
G1 F1200 X59.722 Y43.863 E15.31703
G1 X60.352 Y43.191 E15.35993
G1 X61.038 Y42.577 E15.4028
G1 X61.774 Y42.025 E15.44563
G1 X62.556 Y41.538 E15.48853
G1 X63.377 Y41.122 E15.53139
G1 X64.231 Y40.778 E15.57426
G1 X65.111 Y40.509 E15.61711
G1 X66.012 Y40.318 E15.65999
G1 X66.926 Y40.206 E15.70287
G1 X67.462 Y40.177 E15.72787
G1 X67.782 Y40.168 E15.74277
G1 X68.08 Y40.164 E15.75665
G1 X166.543 Y40.164 E20.3415
G1 X167.393 Y40.175 E20.38108
G1 X168.312 Y40.228 E20.42395
G1 X169.223 Y40.361 E20.46682
G1 X170.119 Y40.572 E20.50968
G1 X170.993 Y40.86 E20.55253
G1 X171.84 Y41.223 E20.59544
G1 X172.651 Y41.658 E20.63829
G1 X173.421 Y42.162 E20.68114
G1 X174.145 Y42.731 E20.72402
G1 X174.817 Y43.361 E20.76691
G1 X175.432 Y44.046 E20.80978
G1 X175.985 Y44.782 E20.85265
G1 X176.472 Y45.563 E20.8955
G1 X176.889 Y46.384 E20.93838
G1 X177.234 Y47.238 E20.98127
G1 X177.503 Y48.118 E21.02412
G1 X177.695 Y49.019 E21.06701
G1 X177.808 Y49.932 E21.10985
G1 X177.837 Y50.476 E21.13522
G1 X177.846 Y50.796 E21.15012
G1 X177.85 Y51.094 E21.164
G1 X177.849 Y70.186 E22.05301
G1 X177.831 Y71.405 E22.10977
G1 X177.774 Y73.45 E22.20503
G1 X177.774 Y76.024 E22.32489
G1 X177.802 Y77.295 E22.38409
G1 X177.845 Y78.766 E22.45261
G1 X177.85 Y79.076 E22.46705
G1 X177.849 Y80.174 E22.51818
G1 X177.839 Y80.901 E22.55203
G1 X177.786 Y81.82 E22.5949
G1 X177.654 Y82.731 E22.63776
G1 X177.443 Y83.627 E22.68062
G1 X177.156 Y84.502 E22.7235
G1 X176.793 Y85.348 E22.76637
G1 X176.359 Y86.16 E22.80924
G1 X175.855 Y86.931 E22.85213
G1 X175.287 Y87.655 E22.89498
G1 X174.658 Y88.327 E22.93784
G1 X173.973 Y88.942 E22.98071
G1 X173.237 Y89.495 E23.02357
G1 X172.456 Y89.983 E23.06645
G1 X171.636 Y90.401 E23.10931
G1 X170.782 Y90.746 E23.1522
G1 X169.902 Y91.015 E23.19505
G1 X169.001 Y91.208 E23.23795
G1 X168.088 Y91.321 E23.28079
G1 X167.538 Y91.351 E23.30644
G1 X167.218 Y91.36 E23.32135
G1 X166.92 Y91.364 E23.33522
G1 X68.32 Y91.363 E27.92645
G1 X67.622 Y91.354 E27.95896
G1 X66.703 Y91.302 E28.00182
G1 X65.792 Y91.171 E28.04467
G1 X64.896 Y90.961 E28.08753
G1 X64.021 Y90.674 E28.13041
G1 X63.174 Y90.312 E28.1733
G1 X62.362 Y89.878 E28.21617
G1 X61.591 Y89.376 E28.25901
G1 X60.866 Y88.808 E28.3019
G1 X60.193 Y88.179 E28.34479
G1 X59.578 Y87.495 E28.38762
G1 X59.024 Y86.76 E28.43048
G1 X58.536 Y85.979 E28.47336
G1 X58.117 Y85.159 E28.51624
G1 X57.771 Y84.306 E28.5591
G1 X57.501 Y83.426 E28.60196
G1 X57.308 Y82.525 E28.64487
G1 X57.194 Y81.612 E28.68771
G1 X57.163 Y81.041 E28.71434
G1 X57.154 Y80.708 E28.72985
G1 X57.15 Y80.422 E28.74317
G1 X57.151 Y79.282 E28.79625
G1 X57.169 Y78.123 E28.85023
G1 X57.226 Y76.078 E28.94549
G1 X57.226 Y73.504 E29.06534
G1 X57.196 Y72.16 E29.12794
G1 X57.155 Y70.762 E29.19307
G1 X57.15 Y70.452 E29.2075
G1 X57.151 Y51.279 E30.10028
G1 X57.161 Y50.614 E30.13125
G1 X57.215 Y49.695 E30.17411
G1 X57.348 Y48.784 E30.21698
G1 X57.56 Y47.888 E30.25986
G1 X57.849 Y47.013 E30.30277
G1 X58.213 Y46.168 E30.34561
G1 X58.648 Y45.357 E30.38846
G1 X59.153 Y44.586 E30.43138
G0 F6000 X59.548 Y44.722
G1 F1200 X60.116 Y44.02 E30.47343
G1 X60.743 Y43.37 E30.51548
G1 X61.425 Y42.778 E30.55753
G1 X62.157 Y42.249 E30.59958
G1 X62.933 Y41.787 E30.64164
G1 X63.747 Y41.396 E30.68369
G1 X64.592 Y41.077 E30.72574
G1 X65.462 Y40.835 E30.76779
G1 X66.35 Y40.671 E30.80984
G1 X67.473 Y40.577 E30.86232
G1 X67.793 Y40.568 E30.87722
G1 X68.08 Y40.564 E30.89059
G1 X166.543 Y40.564 E35.47544
G1 X167.387 Y40.575 E35.51474
G1 X168.289 Y40.628 E35.55681
G1 X169.182 Y40.76 E35.59885
G1 X170.06 Y40.971 E35.64089
G1 X170.916 Y41.259 E35.68295
G1 X171.743 Y41.621 E35.72499
G1 X172.535 Y42.056 E35.76706
G1 X173.286 Y42.558 E35.80912
G1 X173.989 Y43.125 E35.85118
G1 X174.639 Y43.752 E35.89323
G1 X175.231 Y44.434 E35.93528
G1 X175.761 Y45.165 E35.97733
G1 X176.223 Y45.941 E36.01938
G1 X176.616 Y46.754 E36.06143
G1 X176.934 Y47.599 E36.10347
G1 X177.177 Y48.469 E36.14553
G1 X177.342 Y49.357 E36.18759
G1 X177.437 Y50.487 E36.24039
G1 X177.446 Y50.807 E36.2553
G1 X177.45 Y51.094 E36.26866
G1 X177.449 Y70.181 E37.15743
G1 X177.431 Y71.394 E37.21392
G1 X177.374 Y73.439 E37.30918
G1 X177.374 Y76.033 E37.42997
G1 X177.403 Y77.307 E37.48931
G1 X177.446 Y78.778 E37.55783
G1 X177.45 Y79.076 E37.57171
G1 X177.449 Y80.168 E37.62256
G1 X177.439 Y80.895 E37.65641
G1 X177.387 Y81.797 E37.69848
G1 X177.255 Y82.69 E37.74052
G1 X177.044 Y83.569 E37.78261
G1 X176.757 Y84.425 E37.82465
G1 X176.395 Y85.252 E37.86669
G1 X175.961 Y86.044 E37.90874
G1 X175.459 Y86.795 E37.9508
G1 X174.893 Y87.498 E37.99283
G1 X174.266 Y88.149 E38.03491
G1 X173.585 Y88.741 E38.07693
G1 X172.854 Y89.271 E38.11897
G1 X172.078 Y89.734 E38.16105
G1 X171.265 Y90.127 E38.2031
G1 X170.42 Y90.447 E38.24517
G1 X169.551 Y90.69 E38.28719
G1 X168.663 Y90.855 E38.32925
G1 X167.527 Y90.951 E38.38233
G1 X167.207 Y90.96 E38.39724
G1 X166.92 Y90.964 E38.4106
G1 X68.325 Y90.963 E43.0016
G1 X67.627 Y90.954 E43.0341
G1 X66.726 Y90.903 E43.07613
G1 X65.832 Y90.771 E43.1182
G1 X64.954 Y90.562 E43.16023
G1 X64.097 Y90.275 E43.20231
G1 X63.27 Y89.914 E43.24433
G1 X62.477 Y89.481 E43.2864
G1 X61.726 Y88.98 E43.32844
G1 X61.022 Y88.414 E43.3705
G1 X60.371 Y87.788 E43.41256
G1 X59.778 Y87.107 E43.4546
G1 X59.248 Y86.376 E43.49665
G1 X58.784 Y85.601 E43.53871
G1 X58.39 Y84.788 E43.58078
G1 X58.07 Y83.944 E43.62281
G1 X57.826 Y83.074 E43.66488
G1 X57.66 Y82.186 E43.70695
G1 X57.563 Y81.031 E43.76092
G1 X57.554 Y80.698 E43.77643
G1 X57.55 Y80.422 E43.78928
G1 X57.551 Y79.288 E43.84209
G1 X57.569 Y78.134 E43.89583
G1 X57.626 Y76.089 E43.99109
G1 X57.626 Y73.495 E44.11188
G1 X57.597 Y72.221 E44.17121
G1 X57.554 Y70.75 E44.23974
G1 X57.55 Y70.452 E44.25362
G1 X57.551 Y51.285 E45.14611
G1 X57.561 Y50.62 E45.17708
G1 X57.615 Y49.718 E45.21916
G1 X57.748 Y48.825 E45.2612
G1 X57.959 Y47.947 E45.30324
G1 X58.248 Y47.091 E45.34531
G1 X58.611 Y46.264 E45.38737
G1 X59.045 Y45.473 E45.42938
G1 X59.548 Y44.722 E45.47147
G1 F2700 E40.47147
;MESH:AngleBKTB6600.stl
G0 F6000 X159.601 Y65.277
G0 X158.448 Y66.173
G0 X160.695 Y67.416
;TYPE:WALL-INNER
G1 F2700 E45.47147
G1 F1200 X161.011 Y67.454 E45.48629
G1 X161.329 Y67.463 E45.5011
G1 X161.648 Y67.439 E45.516
G1 X161.963 Y67.383 E45.5309
G1 X162.269 Y67.298 E45.54568
G1 X162.567 Y67.18 E45.56061
G1 X162.855 Y67.032 E45.57569
G1 X163.119 Y66.862 E45.59031
G1 X163.367 Y66.663 E45.60511
G1 X163.595 Y66.441 E45.61993
G1 X163.802 Y66.195 E45.6349
G1 X163.982 Y65.932 E45.64974
G1 X164.134 Y65.652 E45.66458
G1 X164.258 Y65.357 E45.67948
G1 X164.353 Y65.047 E45.69458
G1 X164.415 Y64.74 E45.70916
G1 X164.447 Y64.423 E45.724
G1 X164.447 Y64.104 E45.73885
G1 X164.415 Y63.786 E45.75373
G1 X164.352 Y63.474 E45.76855
G1 X164.257 Y63.169 E45.78343
G1 X164.134 Y62.875 E45.79827
G1 X163.982 Y62.595 E45.8131
G1 X163.802 Y62.332 E45.82794
G1 X163.591 Y62.081 E45.84321
G1 X163.367 Y61.863 E45.85777
G1 X163.119 Y61.666 E45.87251
G1 X162.85 Y61.492 E45.88743
G1 X162.567 Y61.347 E45.90224
G1 X162.269 Y61.229 E45.91716
G1 X161.962 Y61.143 E45.93201
G1 X161.641 Y61.088 E45.94717
G1 X161.331 Y61.064 E45.96165
G1 X161.01 Y61.073 E45.9766
G1 X160.695 Y61.111 E45.99138
G1 X160.384 Y61.182 E46.00623
G1 X160.08 Y61.284 E46.02116
G1 X159.785 Y61.419 E46.03627
G1 X159.507 Y61.579 E46.05121
G1 X159.25 Y61.766 E46.06601
G1 X159.015 Y61.972 E46.08056
G1 X158.794 Y62.212 E46.09575
G1 X158.606 Y62.46 E46.11024
G1 X158.439 Y62.732 E46.1251
G1 X158.3 Y63.022 E46.14008
G1 X158.192 Y63.32 E46.15484
G1 X158.114 Y63.628 E46.16963
G1 X158.065 Y63.945 E46.18457
G1 X158.051 Y64.255 E46.19902
G1 X158.065 Y64.589 E46.21458
G1 X158.114 Y64.898 E46.22915
G1 X158.192 Y65.207 E46.24399
G1 X158.301 Y65.507 E46.25885
G1 X158.439 Y65.795 E46.27372
G1 X158.606 Y66.066 E46.28855
G1 X158.798 Y66.321 E46.30341
G1 X159.021 Y66.56 E46.31863
G1 X159.255 Y66.765 E46.33312
G1 X159.519 Y66.956 E46.34829
G1 X159.796 Y67.114 E46.36314
G1 X160.086 Y67.245 E46.37795
G1 X160.384 Y67.345 E46.39259
G1 X160.695 Y67.416 E46.40745
G0 F6000 X160.764 Y67.021
;TYPE:WALL-OUTER
G1 F1200 X161.041 Y67.055 E46.42044
G1 X161.32 Y67.063 E46.43344
G1 X161.598 Y67.042 E46.44642
G1 X161.874 Y66.993 E46.45947
G1 X162.141 Y66.918 E46.47239
G1 X162.402 Y66.815 E46.48545
G1 X162.655 Y66.685 E46.4987
G1 X162.885 Y66.537 E46.51143
G1 X163.102 Y66.363 E46.52438
G1 X163.302 Y66.168 E46.53739
G1 X163.483 Y65.953 E46.55048
G1 X163.64 Y65.723 E46.56344
G1 X163.773 Y65.479 E46.57638
G1 X163.881 Y65.221 E46.58941
G1 X163.965 Y64.948 E46.60271
G1 X164.019 Y64.68 E46.61544
G1 X164.047 Y64.403 E46.6284
G1 X164.047 Y64.124 E46.64139
G1 X164.019 Y63.846 E46.6544
G1 X163.964 Y63.573 E46.66737
G1 X163.881 Y63.306 E46.68039
G1 X163.773 Y63.048 E46.69341
G1 X163.64 Y62.804 E46.70635
G1 X163.483 Y62.574 E46.71932
G1 X163.298 Y62.354 E46.73271
G1 X163.102 Y62.164 E46.74542
G1 X162.885 Y61.991 E46.75834
G1 X162.65 Y61.839 E46.77137
G1 X162.402 Y61.712 E46.78434
G1 X162.141 Y61.609 E46.79741
G1 X161.874 Y61.534 E46.81032
G1 X161.591 Y61.485 E46.8237
G1 X161.321 Y61.464 E46.83631
G1 X161.04 Y61.472 E46.8494
G1 X160.764 Y61.506 E46.86235
G1 X160.492 Y61.568 E46.87534
G1 X160.227 Y61.657 E46.88835
G1 X159.968 Y61.775 E46.90161
G1 X159.725 Y61.915 E46.91467
G1 X159.5 Y62.079 E46.92763
G1 X159.295 Y62.259 E46.94033
G1 X159.101 Y62.469 E46.95365
G1 X158.937 Y62.686 E46.96631
G1 X158.791 Y62.924 E46.97931
G1 X158.669 Y63.177 E46.99239
G1 X158.575 Y63.438 E47.00531
G1 X158.506 Y63.708 E47.01829
G1 X158.464 Y63.985 E47.03133
G1 X158.451 Y64.256 E47.04396
G1 X158.464 Y64.549 E47.05762
G1 X158.506 Y64.818 E47.0703
G1 X158.575 Y65.089 E47.08332
G1 X158.67 Y65.352 E47.09634
G1 X158.791 Y65.603 E47.10932
G1 X158.937 Y65.841 E47.12232
G1 X159.105 Y66.064 E47.13532
G1 X159.3 Y66.273 E47.14863
G1 X159.504 Y66.452 E47.16127
G1 X159.736 Y66.619 E47.17458
G1 X159.978 Y66.757 E47.18755
G1 X160.232 Y66.872 E47.20053
G1 X160.492 Y66.959 E47.2133
G1 X160.764 Y67.021 E47.22629
G0 F6000 X160.689 Y67.454
G1 F2700 E42.22629
G0 F6000 X159.415 Y67.117
G0 X160.12 Y65.836
G0 X74.946 Y65.785
G0 X75.731 Y67.017
G0 X74.769 Y67.298
;TYPE:WALL-INNER
G1 F2700 E47.22629
G1 F1200 X75.067 Y67.18 E47.24121
G1 X75.355 Y67.032 E47.25629
G1 X75.619 Y66.862 E47.27091
G1 X75.867 Y66.663 E47.28572
G1 X76.095 Y66.441 E47.30053
G1 X76.302 Y66.195 E47.31551
G1 X76.482 Y65.932 E47.33035
G1 X76.634 Y65.652 E47.34518
G1 X76.758 Y65.357 E47.36008
G1 X76.853 Y65.047 E47.37518
G1 X76.915 Y64.74 E47.38976
G1 X76.947 Y64.423 E47.4046
G1 X76.947 Y64.104 E47.41945
G1 X76.915 Y63.786 E47.43433
G1 X76.852 Y63.474 E47.44916
G1 X76.757 Y63.169 E47.46403
G1 X76.634 Y62.875 E47.47887
G1 X76.482 Y62.595 E47.49371
G1 X76.302 Y62.332 E47.50855
G1 X76.091 Y62.081 E47.52381
G1 X75.867 Y61.863 E47.53837
G1 X75.619 Y61.666 E47.55312
G1 X75.35 Y61.492 E47.56803
G1 X75.067 Y61.347 E47.58284
G1 X74.769 Y61.229 E47.59777
G1 X74.462 Y61.143 E47.61261
G1 X74.141 Y61.088 E47.62778
G1 X73.831 Y61.064 E47.64225
G1 X73.51 Y61.073 E47.65721
G1 X73.195 Y61.111 E47.67198
G1 X72.884 Y61.182 E47.68684
G1 X72.58 Y61.284 E47.70177
G1 X72.285 Y61.419 E47.71687
G1 X72.007 Y61.579 E47.73181
G1 X71.75 Y61.766 E47.74661
G1 X71.515 Y61.972 E47.76116
G1 X71.294 Y62.212 E47.77635
G1 X71.106 Y62.46 E47.79084
G1 X70.939 Y62.732 E47.8057
G1 X70.8 Y63.022 E47.82068
G1 X70.692 Y63.32 E47.83544
G1 X70.614 Y63.628 E47.85023
G1 X70.565 Y63.945 E47.86517
G1 X70.551 Y64.255 E47.87962
G1 X70.565 Y64.589 E47.89518
G1 X70.614 Y64.898 E47.90975
G1 X70.692 Y65.207 E47.92459
G1 X70.801 Y65.507 E47.93946
G1 X70.939 Y65.795 E47.95433
G1 X71.106 Y66.066 E47.96915
G1 X71.298 Y66.321 E47.98401
G1 X71.521 Y66.56 E47.99923
G1 X71.755 Y66.765 E48.01372
G1 X72.019 Y66.956 E48.02889
G1 X72.296 Y67.114 E48.04374
G1 X72.586 Y67.245 E48.05856
