;FLAVOR:Marlin
;TIME:17559
;Filament used: 15.0745m
;Layer height: 0.28
;MINX:52.5
;MINY:29.5
;MINZ:0.28
;MAXX:182.5
;MAXY:205.5
;MAXZ:29.96
;Generated with Cura_SteamEngine 4.10.0
M140 S50
M105
M190 S50
M104 S200
M105
M109 S200
M82 ;absolute extrusion mode
; Ender 3 Custom Start G-code
G92 E0 ; Reset Extruder
G28 ; Home all axes
G1 Z2.0 F3000 ; Move Z Axis up little to prevent scratching of Heat Bed
G1 X0.1 Y20 Z0.3 F5000.0 ; Move to start position
G1 X0.1 Y200.0 Z0.3 F1500.0 E15 ; Draw the first line
G1 X0.4 Y200.0 Z0.3 F5000.0 ; Move to side a little
G1 X0.4 Y20 Z0.3 F1500.0 E30 ; Draw the second line
G92 E0 ; Reset Extruder
G1 Z2.0 F3000 ; Move Z Axis up little to prevent scratching of Heat Bed
G1 X5 Y20 Z0.3 F5000.0 ; Move over to prevent blob squish
G92 E0
G92 E0
G1 F2700 E-5
;LAYER_COUNT:107
;LAYER:0
M107
G0 F6000 X53.992 Y34.993 Z0.28
;TYPE:SKIRT
G1 F2700 E0
G1 F1200 X54.496 Y34.203 E0.04363
G1 X55.066 Y33.458 E0.08731
G1 X55.698 Y32.764 E0.13102
G1 X56.386 Y32.127 E0.17468
G1 X57.126 Y31.551 E0.21835
G1 X57.912 Y31.039 E0.26203
G1 X58.739 Y30.597 E0.30569
G1 X59.601 Y30.227 E0.34937
G1 X60.491 Y29.931 E0.39304
G1 X61.403 Y29.713 E0.43671
G1 X62.33 Y29.572 E0.48037
G1 X63.201 Y29.513 E0.52102
G1 X63.522 Y29.504 E0.53597
G1 X63.83 Y29.5 E0.55031
G1 X170.793 Y29.5 E5.53096
G1 X171.649 Y29.511 E5.57082
G1 X172.585 Y29.565 E5.61448
G1 X173.513 Y29.697 E5.65812
G1 X174.427 Y29.909 E5.70181
G1 X175.319 Y30.198 E5.74547
G1 X176.184 Y30.561 E5.78916
G1 X177.014 Y30.997 E5.83281
G1 X177.805 Y31.502 E5.87651
G1 X178.549 Y32.073 E5.92018
G1 X179.242 Y32.705 E5.96385
G1 X179.879 Y33.393 E6.00751
G1 X180.454 Y34.134 E6.05119
G1 X180.965 Y34.92 E6.09484
G1 X181.407 Y35.748 E6.13854
G1 X181.776 Y36.61 E6.18221
G1 X182.071 Y37.5 E6.22587
G1 X182.289 Y38.412 E6.26953
G1 X182.429 Y39.34 E6.31323
G1 X182.487 Y40.201 E6.35341
G1 X182.496 Y40.521 E6.36832
G1 X182.5 Y40.83 E6.38271
G1 X182.499 Y193.9 E13.51029
G1 X182.49 Y194.627 E13.54414
G1 X182.439 Y195.564 E13.58784
G1 X182.307 Y196.492 E13.63148
G1 X182.098 Y197.406 E13.67514
G1 X181.811 Y198.299 E13.71882
G1 X181.449 Y199.165 E13.76253
G1 X181.015 Y199.996 E13.80618
G1 X180.511 Y200.787 E13.84985
G1 X179.942 Y201.532 E13.8935
G1 X179.311 Y202.227 E13.93721
G1 X178.624 Y202.865 E13.98087
G1 X177.885 Y203.442 E14.02453
G1 X177.099 Y203.954 E14.06821
G1 X176.273 Y204.397 E14.11185
G1 X175.411 Y204.769 E14.15557
G1 X174.522 Y205.065 E14.1992
G1 X173.61 Y205.285 E14.24288
G1 X172.683 Y205.426 E14.28655
G1 X171.799 Y205.487 E14.32781
G1 X171.478 Y205.496 E14.34276
G1 X171.17 Y205.5 E14.3571
G1 X64.065 Y205.499 E19.34436
G1 X63.367 Y205.49 E19.37686
G1 X62.431 Y205.438 E19.42051
G1 X61.502 Y205.306 E19.46421
G1 X60.588 Y205.096 E19.50788
G1 X59.695 Y204.809 E19.55155
G1 X58.83 Y204.446 E19.59523
G1 X57.999 Y204.012 E19.63889
G1 X57.208 Y203.508 E19.68256
G1 X56.463 Y202.938 E19.72624
G1 X55.769 Y202.307 E19.76992
G1 X55.132 Y201.62 E19.81354
G1 X54.555 Y200.88 E19.85724
G1 X54.043 Y200.094 E19.90092
G1 X53.6 Y199.267 E19.9446
G1 X53.229 Y198.406 E19.98826
G1 X52.933 Y197.516 E20.03193
G1 X52.714 Y196.604 E20.0756
G1 X52.573 Y195.677 E20.11927
G1 X52.513 Y194.788 E20.16076
G1 X52.504 Y194.455 E20.17627
G1 X52.5 Y194.158 E20.1901
G1 X52.501 Y41.025 E27.32061
G1 X52.51 Y40.36 E27.35158
G1 X52.563 Y39.424 E27.39523
G1 X52.695 Y38.495 E27.43893
G1 X52.906 Y37.581 E27.48261
G1 X53.194 Y36.689 E27.52625
G1 X53.557 Y35.824 E27.56993
G1 X53.992 Y34.993 E27.61361
G0 F6000 X54.389 Y35.106
G1 F1200 X54.892 Y34.335 E27.65647
G1 X55.461 Y33.611 E27.69935
G1 X56.089 Y32.939 E27.74218
G1 X56.774 Y32.323 E27.78508
G1 X57.51 Y31.77 E27.82794
G1 X58.291 Y31.282 E27.87083
G1 X59.111 Y30.864 E27.91368
G1 X59.965 Y30.519 E27.95657
G1 X60.845 Y30.249 E27.99943
G1 X61.745 Y30.057 E28.04228
G1 X62.659 Y29.943 E28.08517
G1 X63.212 Y29.913 E28.11096
G1 X63.533 Y29.904 E28.12591
G1 X63.83 Y29.9 E28.13975
G1 X170.793 Y29.9 E33.12039
G1 X171.643 Y29.911 E33.15997
G1 X172.562 Y29.964 E33.20284
G1 X173.473 Y30.097 E33.24571
G1 X174.369 Y30.308 E33.28857
G1 X175.243 Y30.596 E33.33142
G1 X176.09 Y30.959 E33.37433
G1 X176.901 Y31.394 E33.41718
G1 X177.671 Y31.898 E33.46003
G1 X178.395 Y32.467 E33.50291
G1 X179.067 Y33.097 E33.5458
G1 X179.682 Y33.782 E33.58867
G1 X180.235 Y34.518 E33.63154
G1 X180.722 Y35.299 E33.67439
G1 X181.139 Y36.12 E33.71727
G1 X181.484 Y36.974 E33.76016
G1 X181.753 Y37.854 E33.80301
G1 X181.945 Y38.755 E33.8459
G1 X182.058 Y39.668 E33.88874
G1 X182.087 Y40.212 E33.91411
G1 X182.096 Y40.532 E33.92901
G1 X182.1 Y40.83 E33.94289
G1 X182.099 Y193.895 E41.07024
G1 X182.09 Y194.622 E41.10409
G1 X182.039 Y195.541 E41.14695
G1 X181.908 Y196.453 E41.18985
G1 X181.698 Y197.349 E41.23271
G1 X181.412 Y198.224 E41.27557
G1 X181.051 Y199.071 E41.31844
G1 X180.617 Y199.883 E41.36132
G1 X180.115 Y200.655 E41.4042
G1 X179.547 Y201.38 E41.44708
G1 X178.919 Y202.053 E41.48994
G1 X178.235 Y202.669 E41.53281
G1 X177.5 Y203.223 E41.57566
G1 X176.72 Y203.712 E41.61853
G1 X175.9 Y204.131 E41.66141
G1 X175.047 Y204.477 E41.70427
G1 X174.167 Y204.748 E41.74715
G1 X173.267 Y204.941 E41.79001
G1 X172.353 Y205.056 E41.8329
G1 X171.788 Y205.087 E41.85925
G1 X171.467 Y205.096 E41.8742
G1 X171.17 Y205.1 E41.88804
G1 X64.07 Y205.099 E46.87506
G1 X63.372 Y205.09 E46.90756
G1 X62.453 Y205.038 E46.95043
G1 X61.542 Y204.907 E46.99328
G1 X60.646 Y204.697 E47.03613
G1 X59.771 Y204.41 E47.07901
G1 X58.924 Y204.048 E47.1219
G1 X58.112 Y203.614 E47.16478
G1 X57.341 Y203.112 E47.20762
G1 X56.616 Y202.544 E47.2505
G1 X55.943 Y201.915 E47.2934
G1 X55.328 Y201.231 E47.33623
G1 X54.774 Y200.496 E47.37908
G1 X54.286 Y199.715 E47.42197
G1 X53.867 Y198.895 E47.46485
G1 X53.521 Y198.042 E47.50771
G1 X53.251 Y197.162 E47.55057
G1 X53.058 Y196.261 E47.59348
G1 X52.944 Y195.348 E47.63632
G1 X52.913 Y194.777 E47.66295
G1 X52.904 Y194.444 E47.67846
G1 X52.9 Y194.158 E47.69178
G1 X52.901 Y41.031 E54.82201
G1 X52.91 Y40.366 E54.85298
G1 X52.962 Y39.446 E54.89589
G1 X53.094 Y38.535 E54.93875
G1 X53.305 Y37.639 E54.98161
G1 X53.592 Y36.764 E55.02449
G1 X53.955 Y35.918 E55.06736
G1 X54.389 Y35.106 E55.11023
G0 F6000 X54.786 Y35.222
G1 F1200 X55.288 Y34.471 E55.15229
G1 X55.855 Y33.767 E55.19438
G1 X56.481 Y33.117 E55.23641
G1 X57.162 Y32.524 E55.27845
G1 X57.894 Y31.994 E55.32053
G1 X58.669 Y31.531 E55.36257
G1 X59.482 Y31.138 E55.40462
G1 X60.327 Y30.818 E55.44669
G1 X61.196 Y30.575 E55.48871
G1 X62.084 Y30.409 E55.53077
G1 X63.223 Y30.313 E55.584
G1 X63.544 Y30.304 E55.59895
G1 X63.83 Y30.3 E55.61227
G1 X170.793 Y30.3 E60.59292
G1 X171.637 Y30.311 E60.63222
G1 X172.539 Y30.364 E60.67429
G1 X173.432 Y30.496 E60.71633
G1 X174.31 Y30.707 E60.75837
G1 X175.166 Y30.995 E60.80043
G1 X175.993 Y31.357 E60.84246
G1 X176.785 Y31.792 E60.88454
G1 X177.536 Y32.294 E60.9266
G1 X178.239 Y32.861 E60.96866
G1 X178.889 Y33.488 E61.01071
G1 X179.481 Y34.17 E61.05276
G1 X180.011 Y34.901 E61.09481
G1 X180.473 Y35.677 E61.13686
G1 X180.866 Y36.49 E61.17891
G1 X181.184 Y37.335 E61.22095
G1 X181.427 Y38.205 E61.26301
G1 X181.592 Y39.093 E61.30507
G1 X181.687 Y40.223 E61.35787
G1 X181.696 Y40.543 E61.37278
G1 X181.7 Y40.83 E61.38614
G1 X181.699 Y193.89 E68.51326
G1 X181.69 Y194.617 E68.54711
G1 X181.639 Y195.519 E68.58918
G1 X181.508 Y196.413 E68.63125
G1 X181.299 Y197.291 E68.67328
G1 X181.013 Y198.148 E68.71535
G1 X180.652 Y198.976 E68.75741
G1 X180.22 Y199.768 E68.79941
G1 X179.719 Y200.52 E68.84149
G1 X179.153 Y201.224 E68.88355
G1 X178.528 Y201.875 E68.92557
G1 X177.847 Y202.469 E68.96765
G1 X177.116 Y203 E69.00972
G1 X176.342 Y203.464 E69.05174
G1 X175.529 Y203.858 E69.09381
G1 X174.685 Y204.178 E69.13584
G1 X173.815 Y204.423 E69.17793
G1 X172.928 Y204.589 E69.21995
G1 X171.777 Y204.687 E69.27374
G1 X171.456 Y204.696 E69.28869
G1 X171.17 Y204.7 E69.30201
G1 X64.075 Y204.699 E74.2888
G1 X63.377 Y204.69 E74.3213
G1 X62.476 Y204.639 E74.36333
G1 X61.582 Y204.507 E74.40541
G1 X60.704 Y204.298 E74.44743
G1 X59.847 Y204.011 E74.48952
G1 X59.02 Y203.65 E74.53153
G1 X58.227 Y203.217 E74.5736
G1 X57.476 Y202.716 E74.61564
G1 X56.772 Y202.15 E74.6577
G1 X56.121 Y201.524 E74.69976
G1 X55.528 Y200.843 E74.74181
G1 X54.998 Y200.112 E74.78385
G1 X54.534 Y199.337 E74.82591
G1 X54.14 Y198.524 E74.86798
G1 X53.82 Y197.68 E74.91001
G1 X53.576 Y196.81 E74.95208
G1 X53.41 Y195.922 E74.99415
G1 X53.313 Y194.767 E75.04812
G1 X53.304 Y194.434 E75.06363
G1 X53.3 Y194.158 E75.07648
G1 X53.301 Y41.036 E82.20648
G1 X53.31 Y40.371 E82.23745
G1 X53.362 Y39.469 E82.27952
G1 X53.494 Y38.576 E82.32156
G1 X53.704 Y37.698 E82.36359
G1 X53.991 Y36.841 E82.40568
G1 X54.353 Y36.014 E82.44771
G1 X54.786 Y35.222 E82.48974
G1 F2700 E77.48974
;MESH:BOX_SPEZERX-Body.stl
G0 F6000 X62.835 Y41.46
G0 X64.46 Y41.46
G0 X64.65 Y193.35
;TYPE:WALL-INNER
G1 F2700 E82.48974
G1 F1200 X170.35 Y193.35 E87.41158
G1 X170.35 Y41.65 E94.47537
G1 X64.65 Y41.65 E99.3972
G1 X64.65 Y193.35 E106.46099
G0 F6000 X65.05 Y192.95
;TYPE:WALL-OUTER
G1 F1200 X169.95 Y192.95 E111.34557
G1 X169.95 Y42.05 E118.37211
G1 X65.05 Y42.05 E123.25669
G1 X65.05 Y192.95 E130.28323
G1 F2700 E125.28323
G0 F6000 X64.75 Y192.95
G0 X170.178 Y193.178
G0 X170.69 Y193.15
G0 X170.9 Y193.9
;TYPE:WALL-INNER
G1 F2700 E130.28323
G1 F1200 X64.1 Y193.9 E135.25628
G1 X64.1 Y41.1 E142.37129
G1 X170.9 Y41.1 E147.34435
G1 X170.9 Y193.9 E154.45935
G0 F6000 X171.3 Y194.3
;TYPE:WALL-OUTER
G1 F1200 X63.7 Y194.3 E159.46966
G1 X63.7 Y40.7 E166.62192
G1 X171.3 Y40.7 E171.63223
G1 X171.3 Y194.3 E178.78449
G1 F2700 E173.78449
G0 F6000 X171 Y194.03
G0 X64.54 Y193.69
G0 X64.533 Y193.509
;TYPE:SKIN
G1 F2700 E178.78449
G1 F1200 X64.763 Y193.739 E178.79963
G0 F6000 X64.49 Y193.466
G1 F1200 X64.259 Y193.235 E178.81484
G0 F6000 X64.49 Y192.9
G1 F1200 X64.259 Y192.669 E178.83006
G0 F6000 X64.49 Y192.335
G1 F1200 X64.259 Y192.103 E178.8453
G0 F6000 X64.49 Y191.769
G1 F1200 X64.259 Y191.538 E178.86051
G0 F6000 X64.49 Y191.203
G1 F1200 X64.259 Y190.972 E178.87572
G0 F6000 X64.49 Y190.638
G1 F1200 X64.259 Y190.406 E178.89097
G0 F6000 X64.49 Y190.072
G1 F1200 X64.259 Y189.841 E178.90618
G0 F6000 X64.49 Y189.506
G1 F1200 X64.259 Y189.275 E178.92139
G0 F6000 X64.49 Y188.941
G1 F1200 X64.259 Y188.709 E178.93664
G0 F6000 X64.49 Y188.375
G1 F1200 X64.259 Y188.144 E178.95185
G0 F6000 X64.49 Y187.809
G1 F1200 X64.259 Y187.578 E178.96706
G0 F6000 X64.49 Y187.243
G1 F1200 X64.259 Y187.012 E178.98227
G0 F6000 X64.49 Y186.678
G1 F1200 X64.259 Y186.447 E178.99748
G0 F6000 X64.49 Y186.112
G1 F1200 X64.259 Y185.881 E179.0127
G0 F6000 X64.49 Y185.546
G1 F1200 X64.259 Y185.315 E179.02791
G0 F6000 X64.49 Y184.981
G1 F1200 X64.259 Y184.75 E179.04312
G0 F6000 X64.49 Y184.415
G1 F1200 X64.259 Y184.184 E179.05833
G0 F6000 X64.49 Y183.849
G1 F1200 X64.259 Y183.618 E179.07354
G0 F6000 X64.49 Y183.284
G1 F1200 X64.259 Y183.052 E179.08879
G0 F6000 X64.49 Y182.718
G1 F1200 X64.259 Y182.487 E179.104
G0 F6000 X64.49 Y182.152
G1 F1200 X64.259 Y181.921 E179.11921
G0 F6000 X64.49 Y181.587
G1 F1200 X64.259 Y181.355 E179.13446
G0 F6000 X64.49 Y181.021
G1 F1200 X64.259 Y180.79 E179.14967
G0 F6000 X64.49 Y180.455
G1 F1200 X64.259 Y180.224 E179.16488
G0 F6000 X64.49 Y179.89
G1 F1200 X64.259 Y179.658 E179.18012
G0 F6000 X64.49 Y179.324
G1 F1200 X64.259 Y179.093 E179.19534
G0 F6000 X64.49 Y178.758
G1 F1200 X64.259 Y178.527 E179.21055
G0 F6000 X64.49 Y178.193
G1 F1200 X64.259 Y177.961 E179.22579
G0 F6000 X64.49 Y177.627
G1 F1200 X64.259 Y177.396 E179.241
G0 F6000 X64.49 Y177.061
G1 F1200 X64.259 Y176.83 E179.25622
G0 F6000 X64.49 Y176.495
G1 F1200 X64.259 Y176.264 E179.27143
G0 F6000 X64.49 Y175.93
G1 F1200 X64.259 Y175.699 E179.28664
G0 F6000 X64.49 Y175.364
G1 F1200 X64.259 Y175.133 E179.30185
G0 F6000 X64.49 Y174.798
G1 F1200 X64.259 Y174.567 E179.31706
G0 F6000 X64.49 Y174.233
G1 F1200 X64.259 Y174.002 E179.33227
G0 F6000 X64.49 Y173.667
G1 F1200 X64.259 Y173.436 E179.34749
G0 F6000 X64.49 Y173.101
G1 F1200 X64.259 Y172.87 E179.3627
G0 F6000 X64.49 Y172.536
G1 F1200 X64.259 Y172.304 E179.37794
G0 F6000 X64.49 Y171.97
G1 F1200 X64.259 Y171.739 E179.39315
G0 F6000 X64.49 Y171.404
G1 F1200 X64.259 Y171.173 E179.40837
G0 F6000 X64.49 Y170.839
G1 F1200 X64.259 Y170.607 E179.42361
G0 F6000 X64.49 Y170.273
G1 F1200 X64.259 Y170.042 E179.43882
G0 F6000 X64.49 Y169.707
G1 F1200 X64.259 Y169.476 E179.45403
G0 F6000 X64.49 Y169.142
G1 F1200 X64.259 Y168.91 E179.46928
G0 F6000 X64.49 Y168.576
G1 F1200 X64.259 Y168.345 E179.48449
G0 F6000 X64.49 Y168.01
G1 F1200 X64.259 Y167.779 E179.4997
G0 F6000 X64.49 Y167.445
G1 F1200 X64.259 Y167.213 E179.51495
G0 F6000 X64.49 Y166.879
G1 F1200 X64.259 Y166.648 E179.53016
G0 F6000 X64.49 Y166.313
G1 F1200 X64.259 Y166.082 E179.54537
G0 F6000 X64.49 Y165.747
G1 F1200 X64.259 Y165.516 E179.56058
G0 F6000 X64.49 Y165.182
G1 F1200 X64.259 Y164.951 E179.57579
G0 F6000 X64.49 Y164.616
G1 F1200 X64.259 Y164.385 E179.59101
G0 F6000 X64.49 Y164.05
G1 F1200 X64.259 Y163.819 E179.60622
G0 F6000 X64.49 Y163.485
G1 F1200 X64.259 Y163.253 E179.62146
G0 F6000 X64.49 Y162.919
G1 F1200 X64.259 Y162.688 E179.63667
G0 F6000 X64.49 Y162.353
G1 F1200 X64.259 Y162.122 E179.65189
G0 F6000 X64.49 Y161.788
G1 F1200 X64.259 Y161.556 E179.66713
G0 F6000 X64.49 Y161.222
G1 F1200 X64.259 Y160.991 E179.68234
G0 F6000 X64.49 Y160.656
G1 F1200 X64.259 Y160.425 E179.69755
G0 F6000 X64.49 Y160.091
G1 F1200 X64.259 Y159.859 E179.7128
G0 F6000 X64.49 Y159.525
G1 F1200 X64.259 Y159.294 E179.72801
G0 F6000 X64.49 Y158.959
G1 F1200 X64.259 Y158.728 E179.74322
G0 F6000 X64.49 Y158.394
G1 F1200 X64.259 Y158.162 E179.75847
G0 F6000 X64.49 Y157.828
G1 F1200 X64.259 Y157.597 E179.77368
G0 F6000 X64.49 Y157.262
G1 F1200 X64.259 Y157.031 E179.78889
G0 F6000 X64.49 Y156.696
G1 F1200 X64.259 Y156.465 E179.8041
G0 F6000 X64.49 Y156.131
G1 F1200 X64.259 Y155.9 E179.81931
G0 F6000 X64.49 Y155.565
G1 F1200 X64.259 Y155.334 E179.83453
G0 F6000 X64.49 Y154.999
G1 F1200 X64.259 Y154.768 E179.84974
G0 F6000 X64.49 Y154.434
G1 F1200 X64.259 Y154.203 E179.86495
G0 F6000 X64.49 Y153.868
G1 F1200 X64.259 Y153.637 E179.88016
G0 F6000 X64.49 Y153.302
G1 F1200 X64.259 Y153.071 E179.89537
G0 F6000 X64.49 Y152.737
G1 F1200 X64.259 Y152.505 E179.91062
G0 F6000 X64.49 Y152.171
G1 F1200 X64.259 Y151.94 E179.92583
G0 F6000 X64.49 Y151.605
G1 F1200 X64.259 Y151.374 E179.94104
G0 F6000 X64.49 Y151.04
G1 F1200 X64.259 Y150.808 E179.95629
G0 F6000 X64.49 Y150.474
G1 F1200 X64.259 Y150.243 E179.9715
G0 F6000 X64.49 Y149.908
G1 F1200 X64.259 Y149.677 E179.98671
G0 F6000 X64.49 Y149.343
G1 F1200 X64.259 Y149.111 E180.00195
G0 F6000 X64.49 Y148.777
G1 F1200 X64.259 Y148.546 E180.01717
G0 F6000 X64.49 Y148.211
G1 F1200 X64.259 Y147.98 E180.03238
G0 F6000 X64.49 Y147.646
G1 F1200 X64.259 Y147.414 E180.04762
G0 F6000 X64.49 Y147.08
G1 F1200 X64.259 Y146.849 E180.06283
G0 F6000 X64.49 Y146.514
G1 F1200 X64.259 Y146.283 E180.07805
G0 F6000 X64.49 Y145.948
G1 F1200 X64.259 Y145.717 E180.09326
G0 F6000 X64.49 Y145.383
G1 F1200 X64.259 Y145.152 E180.10847
G0 F6000 X64.49 Y144.817
G1 F1200 X64.259 Y144.586 E180.12368
G0 F6000 X64.49 Y144.251
G1 F1200 X64.259 Y144.02 E180.13889
G0 F6000 X64.49 Y143.686
G1 F1200 X64.259 Y143.454 E180.15414
G0 F6000 X64.49 Y143.12
G1 F1200 X64.259 Y142.889 E180.16935
G0 F6000 X64.49 Y142.554
G1 F1200 X64.259 Y142.323 E180.18456
G0 F6000 X64.49 Y141.989
G1 F1200 X64.259 Y141.757 E180.19981
G0 F6000 X64.49 Y141.423
G1 F1200 X64.259 Y141.192 E180.21502
G0 F6000 X64.49 Y140.857
G1 F1200 X64.259 Y140.626 E180.23023
G0 F6000 X64.49 Y140.292
G1 F1200 X64.259 Y140.06 E180.24547
G0 F6000 X64.49 Y139.726
