;FLAVOR:Marlin
;TIME:9744
;Filament used: 9.74483m
;Layer height: 0.28
;MINX:54.5
;MINY:31.5
;MINZ:0.28
;MAXX:180.5
;MAXY:203.5
;MAXZ:1.96
;Generated with Cura_SteamEngine 4.10.0
M140 S50
M105
M190 S50
M104 S200
M105
M109 S200
M82 ;absolute extrusion mode
; Ender 3 Custom Start G-code
G92 E0 ; Reset Extruder
G28 ; Home all axes
G1 Z2.0 F3000 ; Move Z Axis up little to prevent scratching of Heat Bed
G1 X0.1 Y20 Z0.3 F5000.0 ; Move to start position
G1 X0.1 Y200.0 Z0.3 F1500.0 E15 ; Draw the first line
G1 X0.4 Y200.0 Z0.3 F5000.0 ; Move to side a little
G1 X0.4 Y20 Z0.3 F1500.0 E30 ; Draw the second line
G92 E0 ; Reset Extruder
G1 Z2.0 F3000 ; Move Z Axis up little to prevent scratching of Heat Bed
G1 X5 Y20 Z0.3 F5000.0 ; Move over to prevent blob squish
G92 E0
G92 E0
G1 F2700 E-5
;LAYER_COUNT:7
;LAYER:0
M107
G0 F6000 X56.496 Y36.203 Z0.28
;TYPE:SKIRT
G1 F2700 E0
G1 F1200 X57.066 Y35.458 E0.04368
G1 X57.698 Y34.764 E0.08739
G1 X58.386 Y34.127 E0.13105
G1 X59.126 Y33.551 E0.17471
G1 X59.912 Y33.039 E0.21839
G1 X60.739 Y32.597 E0.26205
G1 X61.601 Y32.227 E0.30573
G1 X62.491 Y31.931 E0.34941
G1 X63.403 Y31.713 E0.39307
G1 X64.33 Y31.572 E0.43673
G1 X65.201 Y31.513 E0.47738
G1 X65.522 Y31.504 E0.49234
G1 X65.83 Y31.5 E0.50668
G1 X168.793 Y31.5 E5.30107
G1 X169.649 Y31.511 E5.34093
G1 X170.585 Y31.565 E5.38459
G1 X171.513 Y31.697 E5.42823
G1 X172.427 Y31.909 E5.47192
G1 X173.319 Y32.198 E5.51558
G1 X174.184 Y32.561 E5.55926
G1 X175.014 Y32.997 E5.60292
G1 X175.805 Y33.502 E5.64662
G1 X176.549 Y34.073 E5.69029
G1 X177.242 Y34.705 E5.73396
G1 X177.879 Y35.393 E5.77762
G1 X178.454 Y36.134 E5.8213
G1 X178.965 Y36.92 E5.86495
G1 X179.407 Y37.748 E5.90865
G1 X179.776 Y38.61 E5.95232
G1 X180.071 Y39.5 E5.99597
G1 X180.289 Y40.412 E6.03964
G1 X180.429 Y41.34 E6.08334
G1 X180.487 Y42.201 E6.12352
G1 X180.496 Y42.521 E6.13843
G1 X180.5 Y42.83 E6.15282
G1 X180.499 Y191.9 E13.09414
G1 X180.49 Y192.627 E13.128
G1 X180.439 Y193.564 E13.17169
G1 X180.307 Y194.492 E13.21534
G1 X180.098 Y195.406 E13.259
G1 X179.811 Y196.299 E13.30267
G1 X179.449 Y197.165 E13.34638
G1 X179.015 Y197.996 E13.39003
G1 X178.511 Y198.787 E13.43371
G1 X177.942 Y199.532 E13.47736
G1 X177.311 Y200.227 E13.52107
G1 X176.624 Y200.865 E13.56472
G1 X175.885 Y201.442 E13.60838
G1 X175.099 Y201.954 E13.65206
G1 X174.273 Y202.397 E13.6957
G1 X173.411 Y202.769 E13.73942
G1 X172.522 Y203.065 E13.78305
G1 X171.61 Y203.285 E13.82674
G1 X170.683 Y203.426 E13.8704
G1 X169.799 Y203.487 E13.91166
G1 X169.478 Y203.496 E13.92661
G1 X169.17 Y203.5 E13.94095
G1 X66.065 Y203.499 E18.74195
G1 X65.367 Y203.49 E18.77446
G1 X64.431 Y203.438 E18.81811
G1 X63.502 Y203.306 E18.8618
G1 X62.588 Y203.096 E18.90547
G1 X61.695 Y202.809 E18.94915
G1 X60.83 Y202.446 E18.99283
G1 X59.999 Y202.012 E19.03648
G1 X59.208 Y201.508 E19.08016
G1 X58.463 Y200.938 E19.12384
G1 X57.769 Y200.307 E19.16751
G1 X57.132 Y199.62 E19.21114
G1 X56.555 Y198.88 E19.25483
G1 X56.043 Y198.094 E19.29851
G1 X55.6 Y197.267 E19.3422
G1 X55.229 Y196.406 E19.38585
G1 X54.933 Y195.516 E19.42953
G1 X54.714 Y194.604 E19.4732
G1 X54.573 Y193.677 E19.51686
G1 X54.513 Y192.788 E19.55835
G1 X54.504 Y192.455 E19.57386
G1 X54.5 Y192.158 E19.58769
G1 X54.501 Y43.025 E26.53195
G1 X54.51 Y42.36 E26.56292
G1 X54.563 Y41.424 E26.60657
G1 X54.695 Y40.495 E26.65026
G1 X54.906 Y39.581 E26.69394
G1 X55.194 Y38.689 E26.73759
G1 X55.557 Y37.824 E26.78127
G1 X55.992 Y36.993 E26.82495
G1 X56.496 Y36.203 E26.86858
G0 F6000 X56.892 Y36.335
G1 F1200 X57.461 Y35.611 E26.91146
G1 X58.089 Y34.939 E26.95429
G1 X58.774 Y34.323 E26.99718
G1 X59.51 Y33.77 E27.04005
G1 X60.291 Y33.282 E27.08293
G1 X61.111 Y32.864 E27.12579
G1 X61.965 Y32.519 E27.16868
G1 X62.845 Y32.249 E27.21154
G1 X63.745 Y32.057 E27.25439
G1 X64.659 Y31.943 E27.29728
G1 X65.212 Y31.913 E27.32307
G1 X65.533 Y31.904 E27.33802
G1 X65.83 Y31.9 E27.35185
G1 X168.793 Y31.9 E32.14624
G1 X169.643 Y31.911 E32.18582
G1 X170.562 Y31.964 E32.22869
G1 X171.473 Y32.097 E32.27156
G1 X172.369 Y32.308 E32.31442
G1 X173.243 Y32.596 E32.35727
G1 X174.09 Y32.959 E32.40018
G1 X174.901 Y33.394 E32.44303
G1 X175.671 Y33.898 E32.48588
G1 X176.395 Y34.467 E32.52876
G1 X177.067 Y35.097 E32.57165
G1 X177.682 Y35.782 E32.61452
G1 X178.235 Y36.518 E32.65739
G1 X178.722 Y37.299 E32.70024
G1 X179.139 Y38.12 E32.74312
G1 X179.484 Y38.974 E32.78601
G1 X179.753 Y39.854 E32.82886
G1 X179.945 Y40.755 E32.87175
G1 X180.058 Y41.668 E32.91459
G1 X180.087 Y42.212 E32.93996
G1 X180.096 Y42.532 E32.95486
G1 X180.1 Y42.83 E32.96874
G1 X180.099 Y191.895 E39.90983
G1 X180.09 Y192.622 E39.94369
G1 X180.039 Y193.541 E39.98655
G1 X179.908 Y194.453 E40.02945
G1 X179.698 Y195.349 E40.0723
G1 X179.412 Y196.224 E40.11517
G1 X179.051 Y197.071 E40.15804
G1 X178.617 Y197.883 E40.20091
G1 X178.115 Y198.655 E40.24379
G1 X177.547 Y199.38 E40.28668
G1 X176.919 Y200.053 E40.32954
G1 X176.235 Y200.669 E40.3724
G1 X175.5 Y201.223 E40.41526
G1 X174.72 Y201.712 E40.45812
G1 X173.9 Y202.131 E40.501
G1 X173.047 Y202.477 E40.54387
G1 X172.167 Y202.748 E40.58674
G1 X171.267 Y202.941 E40.6296
G1 X170.353 Y203.056 E40.6725
G1 X169.788 Y203.087 E40.69885
G1 X169.467 Y203.096 E40.7138
G1 X169.17 Y203.1 E40.72763
G1 X66.07 Y203.099 E45.5284
G1 X65.372 Y203.09 E45.5609
G1 X64.453 Y203.038 E45.60376
G1 X63.542 Y202.907 E45.64662
G1 X62.646 Y202.697 E45.68947
G1 X61.771 Y202.41 E45.73235
G1 X60.924 Y202.048 E45.77524
G1 X60.112 Y201.614 E45.81811
G1 X59.341 Y201.112 E45.86095
G1 X58.616 Y200.544 E45.90384
G1 X57.943 Y199.915 E45.94673
G1 X57.328 Y199.231 E45.98956
G1 X56.774 Y198.496 E46.03242
G1 X56.286 Y197.715 E46.0753
G1 X55.867 Y196.895 E46.11818
G1 X55.521 Y196.042 E46.16105
G1 X55.251 Y195.162 E46.20391
G1 X55.058 Y194.261 E46.24681
G1 X54.944 Y193.348 E46.28966
G1 X54.913 Y192.777 E46.31628
G1 X54.904 Y192.444 E46.3318
G1 X54.9 Y192.158 E46.34511
G1 X54.901 Y43.031 E53.28909
G1 X54.91 Y42.366 E53.32006
G1 X54.962 Y41.446 E53.36297
G1 X55.094 Y40.535 E53.40583
G1 X55.305 Y39.639 E53.44869
G1 X55.592 Y38.764 E53.49157
G1 X55.955 Y37.918 E53.53444
G1 X56.389 Y37.106 E53.57731
G1 X56.892 Y36.335 E53.62018
G0 F6000 X57.288 Y36.471
G1 F1200 X57.855 Y35.767 E53.66227
G1 X58.481 Y35.117 E53.70429
G1 X59.162 Y34.524 E53.74634
G1 X59.894 Y33.994 E53.78842
G1 X60.669 Y33.531 E53.83045
G1 X61.482 Y33.138 E53.8725
G1 X62.327 Y32.818 E53.91458
G1 X63.196 Y32.575 E53.95659
G1 X64.084 Y32.409 E53.99866
G1 X65.223 Y32.313 E54.05188
G1 X65.544 Y32.304 E54.06683
G1 X65.83 Y32.3 E54.08015
G1 X168.793 Y32.3 E58.87454
G1 X169.637 Y32.311 E58.91385
G1 X170.539 Y32.364 E58.95592
G1 X171.432 Y32.496 E58.99795
G1 X172.31 Y32.707 E59.04
G1 X173.166 Y32.995 E59.08205
G1 X173.993 Y33.357 E59.12409
G1 X174.785 Y33.792 E59.16617
G1 X175.536 Y34.294 E59.20823
G1 X176.239 Y34.861 E59.25028
G1 X176.889 Y35.488 E59.29234
G1 X177.481 Y36.17 E59.33439
G1 X178.011 Y36.901 E59.37643
G1 X178.473 Y37.677 E59.41849
G1 X178.866 Y38.49 E59.46053
G1 X179.184 Y39.335 E59.50257
G1 X179.427 Y40.205 E59.54464
G1 X179.592 Y41.093 E59.58669
G1 X179.687 Y42.223 E59.63949
G1 X179.696 Y42.543 E59.6544
G1 X179.7 Y42.83 E59.66777
G1 X179.699 Y191.89 E66.60862
G1 X179.69 Y192.617 E66.64248
G1 X179.639 Y193.519 E66.68455
G1 X179.508 Y194.413 E66.72662
G1 X179.299 Y195.291 E66.76865
G1 X179.013 Y196.148 E66.81072
G1 X178.652 Y196.976 E66.85278
G1 X178.22 Y197.768 E66.89478
G1 X177.719 Y198.52 E66.93686
G1 X177.153 Y199.224 E66.97892
G1 X176.528 Y199.875 E67.02094
G1 X175.847 Y200.469 E67.06302
G1 X175.116 Y201 E67.10509
G1 X174.342 Y201.464 E67.14711
G1 X173.529 Y201.858 E67.18918
G1 X172.685 Y202.178 E67.23121
G1 X171.815 Y202.423 E67.2733
G1 X170.928 Y202.589 E67.31532
G1 X169.777 Y202.687 E67.36911
G1 X169.456 Y202.696 E67.38406
G1 X169.17 Y202.7 E67.39738
G1 X66.075 Y202.699 E72.19791
G1 X65.377 Y202.69 E72.23042
G1 X64.476 Y202.639 E72.27244
G1 X63.582 Y202.507 E72.31452
G1 X62.704 Y202.298 E72.35654
G1 X61.847 Y202.011 E72.39863
G1 X61.02 Y201.65 E72.44065
G1 X60.227 Y201.217 E72.48272
G1 X59.476 Y200.716 E72.52475
G1 X58.772 Y200.15 E72.56682
G1 X58.121 Y199.524 E72.60887
G1 X57.528 Y198.843 E72.65092
G1 X56.998 Y198.112 E72.69296
G1 X56.534 Y197.337 E72.73502
G1 X56.14 Y196.524 E72.77709
G1 X55.82 Y195.68 E72.81912
G1 X55.576 Y194.81 E72.86119
G1 X55.41 Y193.922 E72.90326
G1 X55.313 Y192.767 E72.95723
G1 X55.304 Y192.434 E72.97274
G1 X55.3 Y192.158 E72.9856
G1 X55.301 Y43.036 E79.92934
G1 X55.31 Y42.371 E79.96031
G1 X55.362 Y41.469 E80.00238
G1 X55.494 Y40.576 E80.04441
G1 X55.704 Y39.698 E80.08645
G1 X55.991 Y38.841 E80.12853
G1 X56.353 Y38.014 E80.17057
G1 X56.786 Y37.222 E80.2126
G1 X57.288 Y36.471 E80.25466
G1 F2700 E75.25466
;MESH:BOX_TTX_LCD_2SW-Body.stl
G0 F6000 X116.572 Y48.562
G0 X115.472 Y49.535
G0 X117.317 Y50.344
;TYPE:WALL-INNER
G1 F2700 E80.25466
G1 F1200 X117.676 Y50.345 E80.27138
G1 X118.023 Y50.292 E80.28772
G1 X118.357 Y50.189 E80.304
G1 X118.67 Y50.04 E80.32014
G1 X119.044 Y49.774 E80.34151
G1 X119.307 Y49.506 E80.359
G1 X119.506 Y49.226 E80.37499
G1 X119.668 Y48.913 E80.3914
G1 X119.779 Y48.579 E80.40779
G1 X119.839 Y48.236 E80.42401
G1 X119.85 Y47.892 E80.44003
G1 X119.804 Y47.533 E80.45688
G1 X119.709 Y47.196 E80.47319
G1 X119.566 Y46.876 E80.48951
G1 X119.375 Y46.58 E80.50591
G1 X119.142 Y46.317 E80.52227
G1 X118.878 Y46.094 E80.53837
G1 X118.474 Y45.859 E80.56013
G1 X118.136 Y45.736 E80.57688
G1 X117.797 Y45.669 E80.59297
G1 X117.554 Y45.65 E80.60432
G1 X117.208 Y45.668 E80.62045
G1 X116.864 Y45.736 E80.63678
G1 X116.53 Y45.858 E80.65334
G1 X116.225 Y46.025 E80.66953
G1 X115.953 Y46.229 E80.68536
G1 X115.699 Y46.488 E80.70225
G1 X115.494 Y46.774 E80.71864
G1 X115.332 Y47.087 E80.73505
G1 X115.221 Y47.421 E80.75144
G1 X115.161 Y47.764 E80.76765
G1 X115.15 Y48.108 E80.78368
G1 X115.196 Y48.467 E80.80053
G1 X115.291 Y48.805 E80.81688
G1 X115.439 Y49.13 E80.83351
G1 X115.625 Y49.42 E80.84955
G1 X115.858 Y49.683 E80.86591
G1 X116.122 Y49.906 E80.882
G1 X116.526 Y50.141 E80.90376
G1 X116.868 Y50.266 E80.92072
G1 X117.317 Y50.344 E80.94194
G0 F6000 X117.352 Y49.944
;TYPE:WALL-OUTER
G1 F1200 X117.646 Y49.945 E80.95563
G1 X117.933 Y49.901 E80.96915
G1 X118.212 Y49.815 E80.98274
G1 X118.467 Y49.694 E80.99589
G1 X118.783 Y49.469 E81.01395
G1 X118.999 Y49.248 E81.02834
G1 X119.164 Y49.017 E81.04156
G1 X119.298 Y48.757 E81.05518
G1 X119.39 Y48.481 E81.06873
G1 X119.44 Y48.195 E81.08224
G1 X119.449 Y47.911 E81.09548
G1 X119.411 Y47.613 E81.10946
G1 X119.332 Y47.333 E81.12301
G1 X119.213 Y47.067 E81.13658
G1 X119.055 Y46.822 E81.15016
G1 X118.862 Y46.604 E81.16371
G1 X118.647 Y46.422 E81.17683
G1 X118.304 Y46.223 E81.19529
G1 X118.028 Y46.122 E81.20898
G1 X117.743 Y46.066 E81.2225
G1 X117.549 Y46.051 E81.23156
G1 X117.257 Y46.066 E81.24518
G1 X116.972 Y46.122 E81.2587
G1 X116.696 Y46.223 E81.27239
G1 X116.442 Y46.362 E81.28587
G1 X116.217 Y46.531 E81.29897
G1 X116.006 Y46.746 E81.313
G1 X115.836 Y46.983 E81.32658
G1 X115.702 Y47.243 E81.3402
G1 X115.61 Y47.519 E81.35375
G1 X115.56 Y47.805 E81.36727
G1 X115.551 Y48.089 E81.3805
G1 X115.589 Y48.387 E81.39449
G1 X115.668 Y48.667 E81.40804
G1 X115.791 Y48.938 E81.42189
G1 X115.945 Y49.178 E81.43517
G1 X116.138 Y49.396 E81.44873
G1 X116.353 Y49.578 E81.46185
G1 X116.696 Y49.777 E81.48031
G1 X116.972 Y49.878 E81.494
G1 X117.352 Y49.944 E81.51195
G0 F6000 X117.314 Y50.382
G1 F2700 E76.51195
G0 F6000 X118.426 Y50.367
G0 X117.904 Y49.007
G0 X132.733 Y85.915
G0 X136.354 Y95.179
G0 X136.543 Y95.397
G0 X155.706 Y143.088
G0 X156.847 Y143.153
G0 X156.889 Y146.031
G0 X162.779 Y160.688
G0 X161.827 Y159.586
G0 X161.322 Y161.281
G0 X161.353 Y161.934
G0 X161.536 Y162.435
G0 X162.122 Y163.406
;TYPE:WALL-INNER
G1 F2700 E81.51195
G1 F1200 X162.526 Y163.641 E81.53372
G1 X162.868 Y163.766 E81.55067
G1 X163.317 Y163.844 E81.57189
G1 X163.676 Y163.845 E81.58861
G1 X164.023 Y163.792 E81.60496
G1 X164.357 Y163.689 E81.62123
G1 X164.67 Y163.54 E81.63737
G1 X165.044 Y163.274 E81.65874
G1 X165.307 Y163.006 E81.67623
G1 X165.506 Y162.726 E81.69222
G1 X165.668 Y162.413 E81.70863
G1 X165.779 Y162.079 E81.72502
G1 X165.839 Y161.736 E81.74124
G1 X165.85 Y161.392 E81.75726
G1 X165.804 Y161.033 E81.77412
G1 X165.709 Y160.696 E81.79042
G1 X165.566 Y160.376 E81.80674
G1 X165.375 Y160.08 E81.82314
G1 X165.142 Y159.817 E81.8395
G1 X164.878 Y159.594 E81.8556
G1 X164.474 Y159.359 E81.87736
G1 X164.136 Y159.236 E81.89411
G1 X163.797 Y159.169 E81.9102
G1 X163.554 Y159.15 E81.92155
G1 X163.208 Y159.168 E81.93768
G1 X162.864 Y159.236 E81.95401
G1 X162.53 Y159.358 E81.97057
G1 X162.225 Y159.525 E81.98676
G1 X161.953 Y159.729 E82.00259
G1 X161.699 Y159.988 E82.01948
G1 X161.494 Y160.274 E82.03587
G1 X161.332 Y160.587 E82.05228
G1 X161.221 Y160.921 E82.06867
G1 X161.161 Y161.264 E82.08488
G1 X161.15 Y161.608 E82.10091
G1 X161.196 Y161.967 E82.11776
G1 X161.291 Y162.305 E82.13411
G1 X161.439 Y162.63 E82.15074
G1 X161.625 Y162.92 E82.16678
G1 X161.858 Y163.183 E82.18314
G1 X162.122 Y163.406 E82.19923
G0 F6000 X162.353 Y163.078
;TYPE:WALL-OUTER
G1 F1200 X162.696 Y163.277 E82.2177
G1 X162.972 Y163.378 E82.23138
G1 X163.352 Y163.444 E82.24934
G1 X163.646 Y163.445 E82.26303
G1 X163.933 Y163.401 E82.27655
G1 X164.212 Y163.315 E82.29015
G1 X164.467 Y163.194 E82.30329
G1 X164.783 Y162.969 E82.32135
G1 X164.999 Y162.748 E82.33574
G1 X165.164 Y162.517 E82.34896
G1 X165.298 Y162.257 E82.36258
G1 X165.39 Y161.981 E82.37613
G1 X165.44 Y161.695 E82.38965
G1 X165.449 Y161.411 E82.40288
G1 X165.411 Y161.113 E82.41687
G1 X165.332 Y160.833 E82.43041
G1 X165.213 Y160.567 E82.44398
G1 X165.055 Y160.322 E82.45756
G1 X164.862 Y160.104 E82.47111
G1 X164.647 Y159.922 E82.48423
G1 X164.304 Y159.723 E82.5027
G1 X164.028 Y159.622 E82.51638
G1 X163.743 Y159.566 E82.52991
G1 X163.549 Y159.551 E82.53897
G1 X163.257 Y159.566 E82.55258
G1 X162.972 Y159.622 E82.56611
G1 X162.696 Y159.723 E82.57979
G1 X162.442 Y159.862 E82.59327
G1 X162.217 Y160.031 E82.60638
G1 X162.006 Y160.246 E82.6204
G1 X161.836 Y160.483 E82.63398
G1 X161.702 Y160.743 E82.6476
G1 X161.61 Y161.019 E82.66115
G1 X161.56 Y161.305 E82.67467
G1 X161.551 Y161.589 E82.6879
G1 X161.589 Y161.887 E82.70189
G1 X161.668 Y162.167 E82.71544
G1 X161.791 Y162.438 E82.72929
G1 X161.945 Y162.678 E82.74257
G1 X162.138 Y162.896 E82.75613
G1 X162.353 Y163.078 E82.76925
G0 F6000 X162.1 Y163.437
G1 F2700 E77.76925
G0 F6000 X161.443 Y162.249
G0 X161.312 Y161.6
G0 X161.378 Y160.961
G0 X161.582 Y160.474
G0 X162.451 Y159.184
G0 X163.096 Y160.493
G0 X163.93 Y118.583
G0 X163.8 Y120.035
G0 X163.368 Y119.766
;TYPE:WALL-INNER
G1 F2700 E82.76925
G1 F1200 X163.817 Y119.844 E82.79047
G1 X164.176 Y119.845 E82.80718
G1 X164.523 Y119.792 E82.82353
G1 X164.857 Y119.689 E82.8398
G1 X165.17 Y119.54 E82.85595
G1 X165.544 Y119.274 E82.87732
G1 X165.807 Y119.006 E82.8948
G1 X166.006 Y118.726 E82.9108
G1 X166.168 Y118.413 E82.92721
G1 X166.279 Y118.079 E82.9436
G1 X166.339 Y117.736 E82.95981
G1 X166.35 Y117.392 E82.97584
G1 X166.304 Y117.033 E82.99269
G1 X166.209 Y116.696 E83.00899
G1 X166.066 Y116.376 E83.02531
G1 X165.875 Y116.08 E83.04172
G1 X165.642 Y115.817 E83.05808
G1 X165.378 Y115.594 E83.07417
G1 X164.974 Y115.359 E83.09593
G1 X164.636 Y115.236 E83.11268
G1 X164.297 Y115.169 E83.12877
G1 X164.054 Y115.15 E83.14012
G1 X163.708 Y115.168 E83.15626
G1 X163.364 Y115.236 E83.17258
G1 X163.03 Y115.358 E83.18914
G1 X162.725 Y115.525 E83.20533
G1 X162.453 Y115.729 E83.22116
G1 X162.199 Y115.988 E83.23806
G1 X161.994 Y116.274 E83.25444
G1 X161.832 Y116.587 E83.27085
G1 X161.721 Y116.921 E83.28724
G1 X161.661 Y117.264 E83.30345
