;FLAVOR:Marlin
;TIME:14203
;Filament used: 11.8761m
;Layer height: 0.15
;MINX:47.95
;MINY:24.95
;MINZ:0.3
;MAXX:172.05
;MAXY:195.05
;MAXZ:4.05
;Generated with Cura_SteamEngine 4.10.0
M140 S60
M105
M190 S60
M104 S200
M105
M109 S200
M82 ;absolute extrusion mode
G28 ;Home
G1 Z15.0 F6000 ;Move the platform down 15mm
;Prime the extruder
G92 E0
G1 F200 E3
G92 E0
G92 E0
G92 E0
G1 F1500 E-6.5
;LAYER_COUNT:26
;LAYER:0
M107
G0 F3600 X48.929 Y29.084 Z0.3
;TYPE:SKIRT
G1 F1500 E0
G1 F1800 X49.347 Y28.413 E0.03944
G1 X49.83 Y27.789 E0.07881
G1 X50.235 Y27.352 E0.10853
G1 X50.352 Y27.235 E0.11679
G1 X50.938 Y26.705 E0.15621
G1 X51.574 Y26.238 E0.19557
G1 X52.254 Y25.837 E0.23496
G1 X52.972 Y25.507 E0.27438
G1 X53.719 Y25.252 E0.31376
G1 X54.488 Y25.073 E0.35315
G1 X55.272 Y24.973 E0.39258
G1 X55.867 Y24.95 E0.42229
G1 X164.133 Y24.95 E5.8237
G1 X164.922 Y24.99 E5.86312
G1 X165.702 Y25.109 E5.90248
G1 X166.467 Y25.307 E5.94191
G1 X167.207 Y25.581 E5.98127
G1 X167.916 Y25.929 E6.02068
G1 X168.587 Y26.347 E6.06012
G1 X169.211 Y26.83 E6.09949
G1 X169.648 Y27.235 E6.12921
G1 X169.765 Y27.352 E6.13747
G1 X170.295 Y27.938 E6.17689
G1 X170.762 Y28.574 E6.21625
G1 X171.163 Y29.254 E6.25564
G1 X171.493 Y29.972 E6.29506
G1 X171.748 Y30.719 E6.33444
G1 X171.927 Y31.488 E6.37383
G1 X172.027 Y32.272 E6.41326
G1 X172.05 Y32.867 E6.44297
G1 X172.05 Y187.133 E14.13933
G1 X172.01 Y187.922 E14.17874
G1 X171.891 Y188.702 E14.21811
G1 X171.693 Y189.467 E14.25753
G1 X171.419 Y190.207 E14.2969
G1 X171.071 Y190.916 E14.3363
G1 X170.653 Y191.587 E14.37574
G1 X170.17 Y192.211 E14.41511
G1 X169.765 Y192.648 E14.44484
G1 X169.648 Y192.765 E14.45309
G1 X169.062 Y193.295 E14.49251
G1 X168.426 Y193.762 E14.53188
G1 X167.746 Y194.163 E14.57126
G1 X167.028 Y194.493 E14.61068
G1 X166.281 Y194.748 E14.65006
G1 X165.512 Y194.927 E14.68946
G1 X164.728 Y195.027 E14.72889
G1 X164.133 Y195.05 E14.75859
G1 X55.867 Y195.05 E20.16001
G1 X55.078 Y195.01 E20.19942
G1 X54.298 Y194.891 E20.23878
G1 X53.533 Y194.693 E20.27821
G1 X52.793 Y194.419 E20.31758
G1 X52.084 Y194.071 E20.35698
G1 X51.413 Y193.653 E20.39642
G1 X50.789 Y193.17 E20.43579
G1 X50.352 Y192.765 E20.46551
G1 X50.235 Y192.648 E20.47377
G1 X49.705 Y192.062 E20.51319
G1 X49.238 Y191.426 E20.55255
G1 X48.837 Y190.746 E20.59194
G1 X48.507 Y190.028 E20.63136
G1 X48.252 Y189.281 E20.67074
G1 X48.073 Y188.512 E20.71013
G1 X47.973 Y187.728 E20.74956
G1 X47.95 Y187.133 E20.77927
G1 X47.95 Y32.867 E28.47563
G1 X47.99 Y32.078 E28.51505
G1 X48.109 Y31.298 E28.55441
G1 X48.307 Y30.533 E28.59383
G1 X48.581 Y29.793 E28.6332
G1 X48.929 Y29.084 E28.67261
G0 F3600 X49.328 Y29.191
G1 F1800 X49.744 Y28.544 E28.71098
G1 X50.225 Y27.944 E28.74935
G1 X50.634 Y27.517 E28.77885
G1 X51.206 Y27.003 E28.81721
G1 X51.828 Y26.55 E28.8556
G1 X52.493 Y26.164 E28.89396
G1 X53.195 Y25.849 E28.93235
G1 X53.926 Y25.609 E28.97073
G1 X54.677 Y25.446 E29.00907
G1 X55.442 Y25.362 E29.04747
G1 X55.867 Y25.35 E29.06868
G1 X164.133 Y25.35 E34.47009
G1 X164.901 Y25.39 E34.50846
G1 X165.661 Y25.509 E34.54684
G1 X166.404 Y25.707 E34.5852
G1 X167.123 Y25.981 E34.62359
G1 X167.809 Y26.328 E34.66194
G1 X168.456 Y26.744 E34.70032
G1 X169.056 Y27.225 E34.73869
G1 X169.483 Y27.634 E34.76818
G1 X169.997 Y28.206 E34.80655
G1 X170.45 Y28.828 E34.84494
G1 X170.836 Y29.493 E34.8833
G1 X171.151 Y30.195 E34.92169
G1 X171.391 Y30.926 E34.96007
G1 X171.554 Y31.677 E34.99841
G1 X171.638 Y32.442 E35.03681
G1 X171.65 Y32.867 E35.05802
G1 X171.65 Y187.133 E42.75438
G1 X171.61 Y187.901 E42.79275
G1 X171.491 Y188.661 E42.83113
G1 X171.293 Y189.404 E42.86949
G1 X171.019 Y190.123 E42.90788
G1 X170.672 Y190.809 E42.94623
G1 X170.256 Y191.456 E42.98461
G1 X169.775 Y192.056 E43.02297
G1 X169.366 Y192.483 E43.05247
G1 X168.794 Y192.997 E43.09084
G1 X168.172 Y193.45 E43.12923
G1 X167.507 Y193.836 E43.16759
G1 X166.805 Y194.151 E43.20598
G1 X166.074 Y194.391 E43.24436
G1 X165.323 Y194.554 E43.2827
G1 X164.558 Y194.638 E43.3211
G1 X164.133 Y194.65 E43.34231
G1 X55.867 Y194.65 E48.74372
G1 X55.099 Y194.61 E48.78209
G1 X54.339 Y194.491 E48.82047
G1 X53.596 Y194.293 E48.85883
G1 X52.877 Y194.019 E48.89722
G1 X52.191 Y193.672 E48.93557
G1 X51.544 Y193.256 E48.97395
G1 X50.944 Y192.775 E49.01231
G1 X50.517 Y192.366 E49.04181
G1 X50.003 Y191.794 E49.08018
G1 X49.55 Y191.172 E49.11857
G1 X49.164 Y190.507 E49.15693
G1 X48.849 Y189.805 E49.19531
G1 X48.609 Y189.074 E49.2337
G1 X48.446 Y188.323 E49.27204
G1 X48.362 Y187.558 E49.31043
G1 X48.35 Y187.133 E49.33165
G1 X48.35 Y32.867 E57.02801
G1 X48.39 Y32.099 E57.06638
G1 X48.509 Y31.339 E57.10475
G1 X48.707 Y30.596 E57.14312
G1 X48.981 Y29.877 E57.1815
G1 X49.328 Y29.191 E57.21986
G0 F3600 X49.727 Y29.301
G1 F1800 X50.142 Y28.678 E57.2572
G1 X50.8 Y27.917 E57.30739
G1 X50.917 Y27.8 E57.31565
G1 X51.474 Y27.3 E57.35299
G1 X52.08 Y26.863 E57.39027
G1 X52.73 Y26.492 E57.42761
G1 X53.416 Y26.193 E57.46494
G1 X54.13 Y25.969 E57.50227
G1 X54.863 Y25.822 E57.53957
G1 X55.867 Y25.75 E57.58979
G1 X164.133 Y25.75 E62.9912
G1 X164.88 Y25.79 E63.02852
G1 X165.618 Y25.909 E63.06582
G1 X166.34 Y26.107 E63.10317
G1 X167.036 Y26.38 E63.14047
G1 X167.699 Y26.727 E63.1778
G1 X168.322 Y27.142 E63.21515
G1 X169.083 Y27.8 E63.26534
G1 X169.2 Y27.917 E63.27359
G1 X169.7 Y28.474 E63.31094
G1 X170.137 Y29.08 E63.34821
G1 X170.508 Y29.73 E63.38555
G1 X170.807 Y30.416 E63.42288
G1 X171.031 Y31.13 E63.46022
G1 X171.178 Y31.863 E63.49752
G1 X171.25 Y32.867 E63.54773
G1 X171.25 Y187.133 E71.2441
G1 X171.21 Y187.88 E71.28142
G1 X171.091 Y188.618 E71.31871
G1 X170.893 Y189.34 E71.35606
G1 X170.62 Y190.036 E71.39336
G1 X170.273 Y190.699 E71.4307
G1 X169.858 Y191.322 E71.46804
G1 X169.2 Y192.083 E71.51823
G1 X169.083 Y192.2 E71.52649
G1 X168.526 Y192.7 E71.56383
G1 X167.92 Y193.137 E71.6011
G1 X167.27 Y193.508 E71.63844
G1 X166.584 Y193.807 E71.67578
G1 X165.87 Y194.031 E71.71311
G1 X165.137 Y194.178 E71.75041
G1 X164.133 Y194.25 E71.80063
G1 X55.867 Y194.25 E77.20204
G1 X55.12 Y194.21 E77.23936
G1 X54.382 Y194.091 E77.27666
G1 X53.66 Y193.893 E77.31401
G1 X52.964 Y193.62 E77.35131
G1 X52.301 Y193.273 E77.38864
G1 X51.678 Y192.858 E77.42599
G1 X50.917 Y192.2 E77.47618
G1 X50.8 Y192.083 E77.48443
G1 X50.3 Y191.526 E77.52177
G1 X49.863 Y190.92 E77.55905
G1 X49.492 Y190.27 E77.59639
G1 X49.193 Y189.584 E77.63372
G1 X48.969 Y188.87 E77.67106
G1 X48.822 Y188.137 E77.70835
G1 X48.75 Y187.133 E77.75857
G1 X48.75 Y32.867 E85.45493
G1 X48.79 Y32.12 E85.49226
G1 X48.909 Y31.382 E85.52955
G1 X49.107 Y30.66 E85.5669
G1 X49.38 Y29.964 E85.6042
G1 X49.727 Y29.301 E85.64153
G0 F3600 X50.125 Y29.414
G1 F1800 X50.539 Y28.817 E85.67778
G1 X51.083 Y28.2 E85.71882
G1 X51.2 Y28.083 E85.72707
G1 X51.741 Y27.599 E85.76329
G1 X52.332 Y27.176 E85.79955
G1 X52.966 Y26.822 E85.83577
G1 X53.635 Y26.539 E85.87201
G1 X54.331 Y26.331 E85.90825
G1 X55.046 Y26.201 E85.94451
G1 X55.867 Y26.15 E85.98555
G1 X164.133 Y26.15 E91.38696
G1 X164.858 Y26.19 E91.42319
G1 X165.575 Y26.309 E91.45945
G1 X166.274 Y26.507 E91.49569
G1 X166.947 Y26.78 E91.53193
G1 X167.586 Y27.125 E91.56816
G1 X168.183 Y27.539 E91.6044
G1 X168.8 Y28.083 E91.64544
G1 X168.917 Y28.2 E91.6537
G1 X169.401 Y28.741 E91.68991
G1 X169.824 Y29.332 E91.72617
G1 X170.178 Y29.966 E91.7624
G1 X170.461 Y30.635 E91.79864
G1 X170.669 Y31.331 E91.83488
G1 X170.799 Y32.046 E91.87113
G1 X170.85 Y32.867 E91.91217
G1 X170.85 Y187.133 E99.60854
G1 X170.81 Y187.858 E99.64476
G1 X170.691 Y188.575 E99.68102
G1 X170.493 Y189.274 E99.71727
G1 X170.22 Y189.947 E99.7535
G1 X169.875 Y190.586 E99.78973
G1 X169.461 Y191.183 E99.82597
G1 X168.917 Y191.8 E99.86701
G1 X168.8 Y191.917 E99.87527
G1 X168.259 Y192.401 E99.91148
G1 X167.668 Y192.824 E99.94774
G1 X167.034 Y193.178 E99.98397
G1 X166.365 Y193.461 E100.02021
G1 X165.669 Y193.669 E100.05645
G1 X164.954 Y193.799 E100.09271
G1 X164.133 Y193.85 E100.13375
G1 X55.867 Y193.85 E105.53516
G1 X55.142 Y193.81 E105.57138
G1 X54.425 Y193.691 E105.60764
G1 X53.726 Y193.493 E105.64389
G1 X53.053 Y193.22 E105.68012
G1 X52.414 Y192.875 E105.71635
G1 X51.817 Y192.461 E105.7526
G1 X51.2 Y191.917 E105.79364
G1 X51.083 Y191.8 E105.80189
G1 X50.599 Y191.259 E105.83811
G1 X50.176 Y190.668 E105.87437
G1 X49.822 Y190.034 E105.91059
G1 X49.539 Y189.365 E105.94683
G1 X49.331 Y188.669 E105.98307
G1 X49.201 Y187.954 E106.01933
G1 X49.15 Y187.133 E106.06037
G1 X49.15 Y32.867 E113.75673
G1 X49.19 Y32.142 E113.79296
G1 X49.309 Y31.425 E113.82922
G1 X49.507 Y30.726 E113.86546
G1 X49.78 Y30.053 E113.9017
G1 X50.125 Y29.414 E113.93793
G0 F3600 X50.179 Y30.146
G1 F1800 X50.524 Y29.532 E113.97306
G1 X50.935 Y28.961 E114.00816
G1 X51.366 Y28.483 E114.04027
G1 X51.483 Y28.366 E114.04853
G1 X52.008 Y27.897 E114.08365
G1 X52.583 Y27.491 E114.11877
G1 X53.201 Y27.153 E114.15391
G1 X53.852 Y26.886 E114.18901
G1 X54.53 Y26.696 E114.22414
G1 X55.225 Y26.583 E114.25927
G1 X55.867 Y26.55 E114.29134
G1 X164.133 Y26.55 E119.69276
G1 X164.836 Y26.59 E119.72788
G1 X165.53 Y26.709 E119.76301
G1 X166.205 Y26.907 E119.79811
G1 X166.854 Y27.179 E119.83322
G1 X167.468 Y27.524 E119.86835
G1 X168.039 Y27.935 E119.90345
G1 X168.517 Y28.366 E119.93556
G1 X168.634 Y28.483 E119.94382
G1 X169.103 Y29.008 E119.97894
G1 X169.509 Y29.583 E120.01406
G1 X169.847 Y30.201 E120.0492
G1 X170.114 Y30.852 E120.0843
G1 X170.304 Y31.53 E120.11943
G1 X170.417 Y32.225 E120.15456
G1 X170.45 Y32.867 E120.18663
G1 X170.45 Y187.133 E127.88299
G1 X170.41 Y187.836 E127.91812
G1 X170.291 Y188.53 E127.95325
G1 X170.093 Y189.205 E127.98835
G1 X169.821 Y189.854 E128.02346
G1 X169.476 Y190.468 E128.05859
G1 X169.065 Y191.039 E128.09369
G1 X168.634 Y191.517 E128.1258
G1 X168.517 Y191.634 E128.13406
G1 X167.992 Y192.103 E128.16918
G1 X167.417 Y192.509 E128.2043
G1 X166.799 Y192.847 E128.23944
G1 X166.148 Y193.114 E128.27454
G1 X165.47 Y193.304 E128.30967
G1 X164.775 Y193.417 E128.3448
G1 X164.133 Y193.45 E128.37687
G1 X55.867 Y193.45 E133.77828
G1 X55.164 Y193.41 E133.81341
G1 X54.47 Y193.291 E133.84854
G1 X53.795 Y193.093 E133.88364
G1 X53.146 Y192.821 E133.91875
G1 X52.532 Y192.476 E133.95388
G1 X51.961 Y192.065 E133.98898
G1 X51.483 Y191.634 E134.02109
G1 X51.366 Y191.517 E134.02935
G1 X50.897 Y190.992 E134.06447
G1 X50.491 Y190.417 E134.09959
G1 X50.153 Y189.799 E134.13473
G1 X49.886 Y189.148 E134.16983
G1 X49.696 Y188.47 E134.20496
G1 X49.583 Y187.775 E134.24009
G1 X49.55 Y187.133 E134.27216
G1 X49.55 Y32.867 E141.96852
G1 X49.59 Y32.164 E142.00365
G1 X49.709 Y31.47 E142.03878
G1 X49.907 Y30.795 E142.07388
G1 X50.179 Y30.146 E142.10898
G0 F3600 X50.578 Y30.241
G1 F1800 X50.922 Y29.653 E142.14297
G1 X51.332 Y29.109 E142.17696
G1 X51.766 Y28.649 E142.20851
G1 X52.275 Y28.196 E142.2425
G1 X52.833 Y27.807 E142.27644
G1 X53.433 Y27.485 E142.31041
G1 X54.067 Y27.236 E142.34439
G1 X54.726 Y27.063 E142.37839
G1 X55.4 Y26.969 E142.41234
G1 X55.867 Y26.95 E142.43565
G1 X164.133 Y26.95 E147.83707
G1 X164.813 Y26.99 E147.87105
G1 X165.483 Y27.109 E147.905
G1 X166.135 Y27.306 E147.93898
G1 X166.759 Y27.578 E147.97294
G1 X167.347 Y27.922 E148.00693
G1 X167.891 Y28.332 E148.04091
G1 X168.351 Y28.766 E148.07247
G1 X168.804 Y29.275 E148.10646
G1 X169.193 Y29.833 E148.1404
G1 X169.515 Y30.433 E148.17437
G1 X169.764 Y31.067 E148.20835
G1 X169.937 Y31.726 E148.24234
G1 X170.031 Y32.4 E148.27629
G1 X170.05 Y32.867 E148.29961
G1 X170.05 Y187.133 E155.99597
G1 X170.01 Y187.813 E156.02996
G1 X169.891 Y188.483 E156.06391
G1 X169.694 Y189.135 E156.09789
G1 X169.422 Y189.759 E156.13185
G1 X169.078 Y190.347 E156.16584
G1 X168.668 Y190.891 E156.19982
G1 X168.234 Y191.351 E156.23137
G1 X167.725 Y191.804 E156.26537
G1 X167.167 Y192.193 E156.2993
G1 X166.567 Y192.515 E156.33328
G1 X165.933 Y192.764 E156.36726
G1 X165.274 Y192.937 E156.40125
G1 X164.6 Y193.031 E156.4352
G1 X164.133 Y193.05 E156.45852
G1 X55.867 Y193.05 E161.85993
G1 X55.187 Y193.01 E161.89392
G1 X54.517 Y192.891 E161.92787
G1 X53.865 Y192.694 E161.96185
G1 X53.241 Y192.422 E161.99581
G1 X52.653 Y192.078 E162.02979
G1 X52.109 Y191.668 E162.06378
G1 X51.649 Y191.234 E162.09533
G1 X51.196 Y190.725 E162.12933
G1 X50.807 Y190.167 E162.16326
G1 X50.485 Y189.567 E162.19723
G1 X50.236 Y188.933 E162.23122
G1 X50.063 Y188.274 E162.26521
G1 X49.969 Y187.6 E162.29916
G1 X49.95 Y187.133 E162.32248
G1 X49.95 Y32.867 E170.01884
G1 X49.99 Y32.187 E170.05282
G1 X50.109 Y31.517 E170.08677
G1 X50.306 Y30.865 E170.12075
G1 X50.578 Y30.241 E170.15471
G0 F3600 X50.978 Y30.34
G1 F1800 X51.32 Y29.779 E170.18749
G1 X51.932 Y29.049 E170.23502
G1 X52.049 Y28.932 E170.24327
G1 X52.541 Y28.496 E170.27607
G1 X53.082 Y28.124 E170.30883
G1 X53.664 Y27.82 E170.34159
G1 X54.279 Y27.589 E170.37436
G1 X54.918 Y27.434 E170.40716
G1 X55.867 Y27.35 E170.4547
G1 X164.133 Y27.35 E175.85611
G1 X164.789 Y27.39 E175.8889
G1 X165.435 Y27.509 E175.92167
G1 X166.062 Y27.706 E175.95446
G1 X166.66 Y27.978 E175.98723
G1 X167.221 Y28.32 E176.02001
G1 X167.951 Y28.932 E176.06754
G1 X168.068 Y29.049 E176.07579
G1 X168.504 Y29.541 E176.10859
G1 X168.876 Y30.082 E176.14135
G1 X169.18 Y30.664 E176.1741
G1 X169.411 Y31.279 E176.20688
G1 X169.566 Y31.918 E176.23968
G1 X169.65 Y32.867 E176.28721
G1 X169.65 Y187.133 E183.98358
G1 X169.61 Y187.789 E184.01637
G1 X169.491 Y188.435 E184.04914
G1 X169.294 Y189.062 E184.08193
G1 X169.022 Y189.66 E184.1147
G1 X168.68 Y190.221 E184.14748
G1 X168.068 Y190.951 E184.19501
G1 X167.951 Y191.068 E184.20326
G1 X167.459 Y191.504 E184.23606
G1 X166.918 Y191.876 E184.26881
G1 X166.336 Y192.18 E184.30157
G1 X165.721 Y192.411 E184.33435
G1 X165.082 Y192.566 E184.36715
G1 X164.133 Y192.65 E184.41468
G1 X55.867 Y192.65 E189.8161
G1 X55.211 Y192.61 E189.84888
G1 X54.565 Y192.491 E189.88166
G1 X53.938 Y192.294 E189.91444
G1 X53.34 Y192.022 E189.94722
G1 X52.779 Y191.68 E189.98
G1 X52.049 Y191.068 E190.02752
G1 X51.932 Y190.951 E190.03578
G1 X51.496 Y190.459 E190.06858
G1 X51.124 Y189.918 E190.10133
G1 X50.82 Y189.336 E190.13409
G1 X50.589 Y188.721 E190.16687
G1 X50.434 Y188.082 E190.19967
G1 X50.35 Y187.133 E190.2472
G1 X50.35 Y32.867 E197.94356
G1 X50.39 Y32.211 E197.97635
G1 X50.509 Y31.565 E198.00912
G1 X50.706 Y30.938 E198.04191
G1 X50.978 Y30.34 E198.07469
G0 F3600 X51.377 Y30.443
G1 F1800 X51.717 Y29.911 E198.10619
G1 X52.214 Y29.331 E198.14429
G1 X52.331 Y29.214 E198.15255
G1 X52.806 Y28.797 E198.18408
G1 X53.329 Y28.442 E198.21562
G1 X53.893 Y28.156 E198.24717
G1 X54.488 Y27.944 E198.27868
G1 X55.106 Y27.808 E198.31025
G1 X55.867 Y27.75 E198.34833
G1 X164.133 Y27.75 E203.74974
G1 X164.764 Y27.79 E203.78128
G1 X165.385 Y27.909 E203.81283
G1 X165.985 Y28.106 E203.84434
G1 X166.557 Y28.377 E203.87591
G1 X167.089 Y28.717 E203.90741
G1 X167.669 Y29.214 E203.94552
G1 X167.786 Y29.331 E203.95377
G1 X168.203 Y29.806 E203.98531
G1 X168.558 Y30.329 E204.01684
G1 X168.844 Y30.893 E204.04839
G1 X169.056 Y31.488 E204.07991
G1 X169.192 Y32.106 E204.11148
G1 X169.25 Y32.867 E204.14955
G1 X169.25 Y187.133 E211.84591
G1 X169.21 Y187.764 E211.87746
G1 X169.091 Y188.385 E211.909
G1 X168.894 Y188.985 E211.94051
G1 X168.623 Y189.557 E211.97209
G1 X168.283 Y190.089 E212.00359
G1 X167.786 Y190.669 E212.04169
G1 X167.669 Y190.786 E212.04995
G1 X167.194 Y191.203 E212.08148
G1 X166.671 Y191.558 E212.11302
G1 X166.107 Y191.844 E212.14457
G1 X165.512 Y192.056 E212.17608
G1 X164.894 Y192.192 E212.20765
G1 X164.133 Y192.25 E212.24573
G1 X55.867 Y192.25 E217.64714
G1 X55.236 Y192.21 E217.67868
G1 X54.615 Y192.091 E217.71023
G1 X54.015 Y191.894 E217.74174
G1 X53.443 Y191.623 E217.77331
G1 X52.911 Y191.283 E217.80481
G1 X52.331 Y190.786 E217.84292
G1 X52.214 Y190.669 E217.85117
