;FLAVOR:Marlin
;TIME:2511
;Filament used: 1.50036m
;Layer height: 0.28
;MINX:56.75
;MINY:38.202
;MINZ:0.28
;MAXX:178.25
;MAXY:70.202
;MAXZ:28
;Generated with Cura_SteamEngine 4.10.0
M140 S50
M105
M190 S50
M104 S200
M105
M109 S200
M82 ;absolute extrusion mode
; Ender 3 Custom Start G-code
G92 E0 ; Reset Extruder
G28 ; Home all axes
G1 Z2.0 F3000 ; Move Z Axis up little to prevent scratching of Heat Bed
G1 X0.1 Y20 Z0.3 F5000.0 ; Move to start position
G1 X0.1 Y200.0 Z0.3 F1500.0 E15 ; Draw the first line
G1 X0.4 Y200.0 Z0.3 F5000.0 ; Move to side a little
G1 X0.4 Y20 Z0.3 F1500.0 E30 ; Draw the second line
G92 E0 ; Reset Extruder
G1 Z2.0 F3000 ; Move Z Axis up little to prevent scratching of Heat Bed
G1 X5 Y20 Z0.3 F5000.0 ; Move over to prevent blob squish
G92 E0
G92 E0
G1 F2700 E-5
;LAYER_COUNT:100
;LAYER:0
M107
G0 F6000 X58.746 Y42.905 Z0.28
;TYPE:SKIRT
G1 F2700 E0
G1 F1200 X59.316 Y42.16 E0.04368
G1 X59.948 Y41.466 E0.08739
G1 X60.636 Y40.829 E0.13105
G1 X61.376 Y40.253 E0.17471
G1 X62.162 Y39.741 E0.21839
G1 X62.989 Y39.299 E0.26205
G1 X63.851 Y38.929 E0.30573
G1 X64.741 Y38.633 E0.34941
G1 X65.653 Y38.415 E0.39307
G1 X66.58 Y38.274 E0.43673
G1 X67.451 Y38.215 E0.47738
G1 X67.772 Y38.206 E0.49234
G1 X68.08 Y38.202 E0.50668
G1 X166.543 Y38.202 E5.09153
G1 X167.399 Y38.213 E5.13139
G1 X168.335 Y38.267 E5.17505
G1 X169.263 Y38.399 E5.21869
G1 X170.177 Y38.611 E5.26238
G1 X171.069 Y38.9 E5.30604
G1 X171.934 Y39.263 E5.34973
G1 X172.764 Y39.699 E5.39338
G1 X173.555 Y40.204 E5.43708
G1 X174.299 Y40.775 E5.48075
G1 X174.992 Y41.407 E5.52442
G1 X175.629 Y42.095 E5.56808
G1 X176.204 Y42.836 E5.61176
G1 X176.715 Y43.622 E5.65541
G1 X177.157 Y44.45 E5.69912
G1 X177.526 Y45.312 E5.74278
G1 X177.821 Y46.202 E5.78644
G1 X178.039 Y47.114 E5.8301
G1 X178.179 Y48.042 E5.8738
G1 X178.237 Y48.903 E5.91398
G1 X178.246 Y49.223 E5.92889
G1 X178.25 Y49.532 E5.94328
G1 X178.249 Y58.602 E6.36562
G1 X178.24 Y59.329 E6.39947
G1 X178.189 Y60.266 E6.44317
G1 X178.057 Y61.194 E6.48681
G1 X177.848 Y62.108 E6.53047
G1 X177.561 Y63.001 E6.57415
G1 X177.199 Y63.867 E6.61785
G1 X176.765 Y64.698 E6.66151
G1 X176.261 Y65.489 E6.70518
G1 X175.692 Y66.234 E6.74883
G1 X175.061 Y66.929 E6.79254
G1 X174.374 Y67.567 E6.8362
G1 X173.635 Y68.144 E6.87986
G1 X172.849 Y68.656 E6.92354
G1 X172.023 Y69.099 E6.96718
G1 X171.161 Y69.471 E7.0109
G1 X170.272 Y69.767 E7.05453
G1 X169.36 Y69.987 E7.09821
G1 X168.433 Y70.128 E7.14187
G1 X167.549 Y70.189 E7.18313
G1 X167.228 Y70.198 E7.19809
G1 X166.92 Y70.202 E7.21243
G1 X158.05 Y70.201 E7.62545
G1 X157.351 Y70.191 E7.658
G1 X156.414 Y70.137 E7.70171
G1 X155.499 Y70.007 E7.74474
G1 X154.107 Y69.747 E7.81068
G1 X153.853 Y69.696 E7.82274
G1 X151.383 Y69.274 E7.93942
G1 X148.874 Y68.918 E8.05742
G1 X146.397 Y68.638 E8.1735
G1 X143.867 Y68.423 E8.29173
G1 X141.393 Y68.284 E8.40711
G1 X137.481 Y68.202 E8.58931
G1 X97.433 Y68.202 E10.45411
G1 X94.825 Y68.239 E10.57556
G1 X92.303 Y68.346 E10.6931
G1 X89.808 Y68.523 E10.80957
G1 X87.31 Y68.771 E10.92646
G1 X84.821 Y69.089 E11.0433
G1 X82.292 Y69.487 E11.16251
G1 X79.507 Y70.006 E11.29443
G1 X78.579 Y70.139 E11.33808
G1 X77.799 Y70.189 E11.37448
G1 X77.479 Y70.198 E11.38938
G1 X77.17 Y70.202 E11.40377
G1 X68.315 Y70.201 E11.8161
G1 X67.617 Y70.192 E11.8486
G1 X66.681 Y70.14 E11.89225
G1 X65.752 Y70.008 E11.93595
G1 X64.838 Y69.798 E11.97961
G1 X63.945 Y69.511 E12.02329
G1 X63.08 Y69.148 E12.06697
G1 X62.249 Y68.714 E12.11063
G1 X61.458 Y68.21 E12.1543
G1 X60.713 Y67.64 E12.19798
G1 X60.019 Y67.009 E12.24166
G1 X59.382 Y66.322 E12.28528
G1 X58.805 Y65.582 E12.32897
G1 X58.293 Y64.796 E12.37265
G1 X57.85 Y63.969 E12.41634
G1 X57.479 Y63.108 E12.45999
G1 X57.183 Y62.218 E12.50367
G1 X56.964 Y61.306 E12.54734
G1 X56.823 Y60.379 E12.591
G1 X56.763 Y59.49 E12.63249
G1 X56.754 Y59.157 E12.64801
G1 X56.75 Y58.86 E12.66184
G1 X56.751 Y49.727 E13.08711
G1 X56.76 Y49.062 E13.11807
G1 X56.813 Y48.126 E13.16173
G1 X56.945 Y47.197 E13.20542
G1 X57.156 Y46.283 E13.2491
G1 X57.444 Y45.391 E13.29275
G1 X57.807 Y44.526 E13.33643
G1 X58.242 Y43.695 E13.3801
G1 X58.746 Y42.905 E13.42374
G0 F6000 X59.142 Y43.037
G1 F1200 X59.711 Y42.313 E13.46662
G1 X60.339 Y41.641 E13.50944
G1 X61.024 Y41.025 E13.55234
G1 X61.76 Y40.472 E13.59521
G1 X62.541 Y39.984 E13.63809
G1 X63.361 Y39.566 E13.68095
G1 X64.215 Y39.221 E13.72384
G1 X65.095 Y38.951 E13.7667
G1 X65.995 Y38.759 E13.80955
G1 X66.909 Y38.645 E13.85244
G1 X67.462 Y38.615 E13.87823
G1 X67.783 Y38.606 E13.89318
G1 X68.08 Y38.602 E13.90701
G1 X166.543 Y38.602 E18.49186
G1 X167.393 Y38.613 E18.53144
G1 X168.312 Y38.666 E18.57431
G1 X169.223 Y38.799 E18.61717
G1 X170.119 Y39.01 E18.66004
G1 X170.993 Y39.298 E18.70289
G1 X171.84 Y39.661 E18.7458
G1 X172.651 Y40.096 E18.78865
G1 X173.421 Y40.6 E18.8315
G1 X174.145 Y41.169 E18.87438
G1 X174.817 Y41.799 E18.91727
G1 X175.432 Y42.484 E18.96014
G1 X175.985 Y43.22 E19.003
G1 X176.472 Y44.001 E19.04586
G1 X176.889 Y44.822 E19.08874
G1 X177.234 Y45.676 E19.13163
G1 X177.503 Y46.556 E19.17448
G1 X177.695 Y47.457 E19.21737
G1 X177.808 Y48.37 E19.26021
G1 X177.837 Y48.914 E19.28558
G1 X177.846 Y49.234 E19.30048
G1 X177.85 Y49.532 E19.31436
G1 X177.849 Y58.597 E19.73646
G1 X177.84 Y59.324 E19.77032
G1 X177.789 Y60.243 E19.81318
G1 X177.658 Y61.155 E19.85608
G1 X177.448 Y62.051 E19.89893
G1 X177.162 Y62.926 E19.9418
G1 X176.801 Y63.773 E19.98467
G1 X176.367 Y64.585 E20.02754
G1 X175.865 Y65.357 E20.07042
G1 X175.297 Y66.082 E20.11331
G1 X174.669 Y66.755 E20.15617
G1 X173.985 Y67.371 E20.19903
G1 X173.25 Y67.925 E20.24189
G1 X172.47 Y68.414 E20.28476
G1 X171.65 Y68.833 E20.32763
G1 X170.797 Y69.179 E20.3705
G1 X169.917 Y69.45 E20.41337
G1 X169.017 Y69.643 E20.45623
G1 X168.103 Y69.758 E20.49913
G1 X167.538 Y69.789 E20.52548
G1 X167.217 Y69.798 E20.54043
G1 X166.92 Y69.802 E20.55426
G1 X158.055 Y69.801 E20.96705
G1 X157.356 Y69.791 E20.9996
G1 X156.437 Y69.738 E21.04247
G1 X155.572 Y69.614 E21.08316
G1 X154.185 Y69.355 E21.14886
G1 X153.927 Y69.304 E21.1611
G1 X151.435 Y68.877 E21.27883
G1 X148.939 Y68.523 E21.39622
G1 X146.404 Y68.237 E21.51501
G1 X143.889 Y68.023 E21.63254
G1 X141.424 Y67.884 E21.7475
G1 X137.489 Y67.802 E21.93077
G1 X97.427 Y67.802 E23.79623
G1 X94.802 Y67.839 E23.91847
G1 X92.294 Y67.946 E24.03536
G1 X89.777 Y68.124 E24.15286
G1 X87.253 Y68.374 E24.27096
G1 X84.745 Y68.695 E24.38869
G1 X82.262 Y69.085 E24.50573
G1 X79.434 Y69.613 E24.63969
G1 X78.522 Y69.743 E24.68259
G1 X77.788 Y69.789 E24.71683
G1 X77.468 Y69.798 E24.73174
G1 X77.17 Y69.802 E24.74562
G1 X68.32 Y69.801 E25.15771
G1 X67.622 Y69.792 E25.19021
G1 X66.703 Y69.74 E25.23307
G1 X65.792 Y69.609 E25.27593
G1 X64.896 Y69.399 E25.31878
G1 X64.021 Y69.112 E25.36166
G1 X63.174 Y68.75 E25.40455
G1 X62.362 Y68.316 E25.44742
G1 X61.591 Y67.814 E25.49026
G1 X60.866 Y67.246 E25.53315
G1 X60.193 Y66.617 E25.57604
G1 X59.578 Y65.933 E25.61888
G1 X59.024 Y65.198 E25.66173
G1 X58.536 Y64.417 E25.70462
G1 X58.117 Y63.597 E25.74749
G1 X57.771 Y62.744 E25.79036
G1 X57.501 Y61.864 E25.83322
G1 X57.308 Y60.963 E25.87612
G1 X57.194 Y60.05 E25.91897
G1 X57.163 Y59.479 E25.94559
G1 X57.154 Y59.146 E25.96111
G1 X57.15 Y58.86 E25.97442
G1 X57.151 Y49.733 E26.39942
G1 X57.16 Y49.068 E26.43038
G1 X57.212 Y48.148 E26.47329
G1 X57.344 Y47.237 E26.51615
G1 X57.555 Y46.341 E26.55902
G1 X57.842 Y45.466 E26.6019
G1 X58.205 Y44.62 E26.64476
G1 X58.639 Y43.808 E26.68764
G1 X59.142 Y43.037 E26.7305
G0 F6000 X59.538 Y43.173
G1 F1200 X60.105 Y42.469 E26.77259
G1 X60.731 Y41.819 E26.81461
G1 X61.412 Y41.226 E26.85666
G1 X62.144 Y40.696 E26.89874
G1 X62.919 Y40.233 E26.94078
G1 X63.732 Y39.84 E26.98283
G1 X64.577 Y39.52 E27.0249
G1 X65.446 Y39.277 E27.06692
G1 X66.334 Y39.111 E27.10898
G1 X67.473 Y39.015 E27.16221
G1 X67.794 Y39.006 E27.17716
G1 X68.08 Y39.002 E27.19048
G1 X166.543 Y39.002 E31.77533
G1 X167.387 Y39.013 E31.81463
G1 X168.289 Y39.066 E31.8567
G1 X169.182 Y39.198 E31.89874
G1 X170.06 Y39.409 E31.94079
G1 X170.916 Y39.697 E31.98284
G1 X171.743 Y40.059 E32.02488
G1 X172.535 Y40.494 E32.06695
G1 X173.286 Y40.996 E32.10901
G1 X173.989 Y41.563 E32.15107
G1 X174.639 Y42.19 E32.19312
G1 X175.231 Y42.872 E32.23517
G1 X175.761 Y43.603 E32.27722
G1 X176.223 Y44.379 E32.31927
G1 X176.616 Y45.192 E32.36132
G1 X176.934 Y46.037 E32.40336
G1 X177.177 Y46.907 E32.44542
G1 X177.342 Y47.795 E32.48748
G1 X177.437 Y48.925 E32.54028
G1 X177.446 Y49.245 E32.55519
G1 X177.45 Y49.532 E32.56855
G1 X177.449 Y58.592 E32.99042
G1 X177.44 Y59.319 E33.02428
G1 X177.389 Y60.221 E33.06635
G1 X177.258 Y61.115 E33.10842
G1 X177.049 Y61.993 E33.15045
G1 X176.763 Y62.85 E33.19251
G1 X176.402 Y63.678 E33.23457
G1 X175.97 Y64.47 E33.27658
G1 X175.469 Y65.222 E33.31866
G1 X174.903 Y65.926 E33.36072
G1 X174.278 Y66.577 E33.40274
G1 X173.597 Y67.171 E33.44482
G1 X172.866 Y67.702 E33.48689
G1 X172.092 Y68.166 E33.52891
G1 X171.279 Y68.56 E33.57098
G1 X170.435 Y68.88 E33.61301
G1 X169.565 Y69.125 E33.6551
G1 X168.678 Y69.291 E33.69712
G1 X167.527 Y69.389 E33.75091
G1 X167.206 Y69.398 E33.76586
G1 X166.92 Y69.402 E33.77918
G1 X158.061 Y69.401 E34.19169
G1 X157.362 Y69.391 E34.22424
G1 X156.461 Y69.338 E34.26627
G1 X155.645 Y69.22 E34.30466
G1 X154.263 Y68.963 E34.37011
G1 X153.995 Y68.91 E34.38284
G1 X151.488 Y68.481 E34.50127
G1 X148.973 Y68.124 E34.61955
G1 X146.482 Y67.842 E34.73628
G1 X143.91 Y67.624 E34.85648
G1 X141.427 Y67.484 E34.97228
G1 X137.497 Y67.402 E35.15532
G1 X97.421 Y67.402 E37.02142
G1 X94.815 Y67.439 E37.14278
G1 X92.247 Y67.548 E37.26247
G1 X89.745 Y67.725 E37.37926
G1 X87.233 Y67.974 E37.4968
G1 X84.67 Y68.302 E37.61712
G1 X82.192 Y68.692 E37.73393
G1 X79.36 Y69.22 E37.86807
G1 X78.466 Y69.346 E37.91011
G1 X77.777 Y69.389 E37.94225
G1 X77.457 Y69.398 E37.95716
G1 X77.17 Y69.402 E37.97053
G1 X68.325 Y69.401 E38.38239
G1 X67.627 Y69.392 E38.41489
G1 X66.726 Y69.341 E38.45691
G1 X65.832 Y69.209 E38.49899
G1 X64.954 Y69 E38.54102
G1 X64.097 Y68.713 E38.5831
G1 X63.27 Y68.352 E38.62512
G1 X62.477 Y67.919 E38.66719
G1 X61.726 Y67.418 E38.70923
G1 X61.022 Y66.852 E38.75129
G1 X60.371 Y66.226 E38.79334
G1 X59.778 Y65.545 E38.83539
G1 X59.248 Y64.814 E38.87743
G1 X58.784 Y64.039 E38.91949
G1 X58.39 Y63.226 E38.96156
G1 X58.07 Y62.382 E39.00359
G1 X57.826 Y61.512 E39.04567
G1 X57.66 Y60.624 E39.08773
G1 X57.563 Y59.469 E39.1417
G1 X57.554 Y59.136 E39.15721
G1 X57.55 Y58.86 E39.17007
G1 X57.551 Y49.738 E39.59483
G1 X57.56 Y49.073 E39.62579
G1 X57.612 Y48.171 E39.66786
G1 X57.744 Y47.278 E39.7099
G1 X57.954 Y46.4 E39.75193
G1 X58.241 Y45.543 E39.79402
G1 X58.603 Y44.716 E39.83605
G1 X59.036 Y43.924 E39.87809
G1 X59.538 Y43.173 E39.92015
G1 F2700 E34.92015
;MESH:FixSupportSlide.stl
G0 F6000 X71.676 Y53.494
G0 X70.552 Y52.569
G0 X70.312 Y54.302
G0 X70.443 Y54.951
G0 X70.754 Y55.525
G0 X71.214 Y55.976
G0 X71.908 Y56.311
G0 X72.432 Y56.375
G0 X73.666 Y56.245
;TYPE:WALL-INNER
G1 F2700 E39.92015
G1 F1200 X74.044 Y55.976 E39.94175
G1 X74.307 Y55.708 E39.95924
G1 X74.506 Y55.428 E39.97523
G1 X74.668 Y55.115 E39.99164
G1 X74.779 Y54.781 E40.00803
G1 X74.839 Y54.438 E40.02425
G1 X74.85 Y54.094 E40.04027
G1 X74.804 Y53.735 E40.05712
G1 X74.709 Y53.399 E40.07338
G1 X74.563 Y53.074 E40.08997
G1 X74.312 Y52.702 E40.11087
G1 X74.054 Y52.438 E40.12806
G1 X73.775 Y52.226 E40.14437
G1 X73.468 Y52.059 E40.16065
G1 X73.136 Y51.939 E40.17709
G1 X72.798 Y51.871 E40.19314
G1 X72.554 Y51.852 E40.20454
G1 X72.207 Y51.87 E40.22072
G1 X71.864 Y51.939 E40.23701
G1 X71.532 Y52.059 E40.25345
G1 X71.226 Y52.226 E40.26968
G1 X70.952 Y52.432 E40.28564
G1 X70.698 Y52.692 E40.30257
G1 X70.494 Y52.977 E40.31889
G1 X70.332 Y53.289 E40.33526
G1 X70.221 Y53.623 E40.35164
G1 X70.161 Y53.966 E40.36786
G1 X70.15 Y54.31 E40.38388
G1 X70.196 Y54.669 E40.40074
G1 X70.291 Y55.007 E40.41709
G1 X70.439 Y55.332 E40.43371
G1 X70.625 Y55.622 E40.44976
G1 X70.859 Y55.886 E40.46618
G1 X71.122 Y56.108 E40.48221
G1 X71.526 Y56.343 E40.50397
G1 X71.864 Y56.466 E40.52072
G1 X72.215 Y56.536 E40.53739
G1 X72.56 Y56.553 E40.55347
G1 X72.911 Y56.518 E40.5699
G1 X73.254 Y56.429 E40.5864
G1 X73.666 Y56.245 E40.60741
G0 F6000 X73.467 Y55.896
;TYPE:WALL-OUTER
G1 F1200 X73.783 Y55.671 E40.62547
G1 X73.999 Y55.45 E40.63986
G1 X74.164 Y55.219 E40.65308
G1 X74.298 Y54.959 E40.6667
G1 X74.39 Y54.683 E40.68025
G1 X74.44 Y54.397 E40.69376
G1 X74.449 Y54.113 E40.707
G1 X74.411 Y53.815 E40.72098
G1 X74.332 Y53.536 E40.73449
G1 X74.212 Y53.269 E40.74812
G1 X74.001 Y52.956 E40.76569
G1 X73.789 Y52.739 E40.77982
G1 X73.557 Y52.563 E40.79338
G1 X73.303 Y52.425 E40.80684
G1 X73.028 Y52.325 E40.82047
G1 X72.743 Y52.268 E40.834
G1 X72.549 Y52.253 E40.84306
G1 X72.257 Y52.268 E40.85667
G1 X71.972 Y52.325 E40.87021
G1 X71.697 Y52.425 E40.88383
G1 X71.443 Y52.563 E40.89729
G1 X71.217 Y52.733 E40.91046
G1 X71.005 Y52.95 E40.92459
G1 X70.836 Y53.186 E40.9381
G1 X70.702 Y53.445 E40.95168
G1 X70.61 Y53.721 E40.96523
G1 X70.56 Y54.007 E40.97875
G1 X70.551 Y54.291 E40.99198
G1 X70.589 Y54.589 E41.00597
G1 X70.668 Y54.869 E41.01952
G1 X70.791 Y55.14 E41.03337
G1 X70.945 Y55.38 E41.04665
G1 X71.139 Y55.599 E41.06027
G1 X71.353 Y55.78 E41.07333
G1 X71.696 Y55.979 E41.09179
G1 X71.972 Y56.08 E41.10548
G1 X72.264 Y56.138 E41.11934
G1 X72.55 Y56.152 E41.13267
G1 X72.84 Y56.123 E41.14624
G1 X73.121 Y56.05 E41.15976
G1 X73.467 Y55.896 E41.1774
G0 F6000 X73.685 Y56.278
G1 F2700 E36.1774
G0 F6000 X74.454 Y55.831
G0 X73.366 Y54.856
G0 X161.601 Y54.809
G0 X160.472 Y55.737
G0 X161.526 Y56.343
;TYPE:WALL-INNER
G1 F2700 E41.1774
G1 F1200 X161.864 Y56.466 E41.19414
G1 X162.215 Y56.536 E41.21081
G1 X162.56 Y56.553 E41.22689
G1 X162.911 Y56.518 E41.24332
G1 X163.254 Y56.429 E41.25982
G1 X163.666 Y56.245 E41.28083
G1 X164.044 Y55.976 E41.30243
G1 X164.307 Y55.708 E41.31992
G1 X164.506 Y55.428 E41.33591
G1 X164.668 Y55.115 E41.35233
G1 X164.779 Y54.781 E41.36871
G1 X164.839 Y54.438 E41.38493
G1 X164.85 Y54.094 E41.40095
G1 X164.804 Y53.735 E41.41781
G1 X164.709 Y53.399 E41.43407
G1 X164.563 Y53.074 E41.45066
G1 X164.312 Y52.702 E41.47155
G1 X164.054 Y52.438 E41.48874
G1 X163.775 Y52.226 E41.50506
G1 X163.468 Y52.059 E41.52133
G1 X163.136 Y51.939 E41.53777
G1 X162.798 Y51.871 E41.55382
G1 X162.554 Y51.852 E41.56522
G1 X162.207 Y51.87 E41.5814
G1 X161.864 Y51.939 E41.59769
G1 X161.532 Y52.059 E41.61413
G1 X161.226 Y52.226 E41.63036
G1 X160.952 Y52.432 E41.64632
G1 X160.698 Y52.692 E41.66325
G1 X160.494 Y52.977 E41.67957
G1 X160.332 Y53.289 E41.69594
G1 X160.221 Y53.623 E41.71233
G1 X160.161 Y53.966 E41.72854
G1 X160.15 Y54.31 E41.74457
G1 X160.196 Y54.669 E41.76142
G1 X160.291 Y55.007 E41.77777
G1 X160.439 Y55.332 E41.7944
G1 X160.625 Y55.622 E41.81044
G1 X160.859 Y55.886 E41.82687
G1 X161.122 Y56.108 E41.84289
G1 X161.526 Y56.343 E41.86466
G0 F6000 X161.696 Y55.979
;TYPE:WALL-OUTER
G1 F1200 X161.972 Y56.08 E41.87834
G1 X162.264 Y56.138 E41.8922
G1 X162.55 Y56.152 E41.90554
G1 X162.84 Y56.123 E41.91911
G1 X163.121 Y56.05 E41.93263
G1 X163.467 Y55.896 E41.95026
G1 X163.783 Y55.671 E41.96832
G1 X163.999 Y55.45 E41.98271
G1 X164.164 Y55.219 E41.99593
G1 X164.298 Y54.959 E42.00955
G1 X164.39 Y54.683 E42.0231
G1 X164.44 Y54.397 E42.03662
G1 X164.449 Y54.113 E42.04985
G1 X164.411 Y53.815 E42.06384
G1 X164.332 Y53.536 E42.07734
G1 X164.212 Y53.269 E42.09097
G1 X164.001 Y52.956 E42.10855
G1 X163.789 Y52.739 E42.12267
G1 X163.557 Y52.563 E42.13623
G1 X163.303 Y52.425 E42.14969
G1 X163.028 Y52.325 E42.16332
G1 X162.743 Y52.268 E42.17685
G1 X162.549 Y52.253 E42.18591
G1 X162.257 Y52.268 E42.19953
G1 X161.972 Y52.325 E42.21306
G1 X161.697 Y52.425 E42.22669
