;FLAVOR:Marlin
;TIME:2594
;Filament used: 2.145m
;Layer height: 0.15
;MINX:52.2
;MINY:34.462
;MINZ:0.3
;MAXX:167.8
;MAXY:90.062
;MAXZ:4.95
;Generated with Cura_SteamEngine 4.10.0
M140 S60
M105
M190 S60
M104 S200
M105
M109 S200
M82 ;absolute extrusion mode
G28 ;Home
G1 Z15.0 F6000 ;Move the platform down 15mm
;Prime the extruder
G92 E0
G1 F200 E3
G92 E0
G92 E0
G92 E0
G1 F1500 E-6.5
;LAYER_COUNT:32
;LAYER:0
M107
G0 F3600 X53.597 Y37.925 Z0.3
;TYPE:SKIRT
G1 F1500 E0
G1 F1800 X54.08 Y37.301 E0.03937
G1 X54.485 Y36.864 E0.06909
G1 X54.602 Y36.747 E0.07735
G1 X55.188 Y36.217 E0.11677
G1 X55.824 Y35.75 E0.15613
G1 X56.504 Y35.349 E0.19552
G1 X57.222 Y35.019 E0.23494
G1 X57.969 Y34.764 E0.27432
G1 X58.738 Y34.585 E0.31371
G1 X59.522 Y34.485 E0.35314
G1 X60.117 Y34.462 E0.38285
G1 X159.883 Y34.462 E5.3602
G1 X160.672 Y34.502 E5.39961
G1 X161.452 Y34.621 E5.43897
G1 X162.217 Y34.819 E5.4784
G1 X162.957 Y35.093 E5.51777
G1 X163.666 Y35.441 E5.55717
G1 X164.337 Y35.859 E5.59661
G1 X164.961 Y36.342 E5.63598
G1 X165.398 Y36.747 E5.6657
G1 X165.515 Y36.864 E5.67396
G1 X166.045 Y37.45 E5.71338
G1 X166.512 Y38.086 E5.75274
G1 X166.913 Y38.766 E5.79213
G1 X167.243 Y39.484 E5.83155
G1 X167.498 Y40.231 E5.87093
G1 X167.677 Y41 E5.91032
G1 X167.777 Y41.784 E5.94975
G1 X167.8 Y42.379 E5.97946
G1 X167.8 Y82.145 E7.96339
G1 X167.76 Y82.934 E8.00281
G1 X167.641 Y83.714 E8.04217
G1 X167.443 Y84.479 E8.0816
G1 X167.169 Y85.219 E8.12096
G1 X166.821 Y85.928 E8.16037
G1 X166.403 Y86.599 E8.19981
G1 X165.92 Y87.223 E8.23918
G1 X165.515 Y87.66 E8.2689
G1 X165.398 Y87.777 E8.27716
G1 X164.812 Y88.307 E8.31658
G1 X164.176 Y88.774 E8.35594
G1 X163.496 Y89.175 E8.39533
G1 X162.778 Y89.505 E8.43475
G1 X162.031 Y89.76 E8.47413
G1 X161.262 Y89.939 E8.51352
G1 X160.478 Y90.039 E8.55295
G1 X159.883 Y90.062 E8.58266
G1 X60.117 Y90.062 E13.56
G1 X59.328 Y90.022 E13.59942
G1 X58.548 Y89.903 E13.63878
G1 X57.783 Y89.705 E13.67821
G1 X57.043 Y89.431 E13.71757
G1 X56.334 Y89.083 E13.75698
G1 X55.663 Y88.665 E13.79642
G1 X55.039 Y88.182 E13.83579
G1 X54.602 Y87.777 E13.86551
G1 X54.485 Y87.66 E13.87377
G1 X53.955 Y87.074 E13.91319
G1 X53.488 Y86.438 E13.95255
G1 X53.087 Y85.758 E13.99194
G1 X52.757 Y85.04 E14.03136
G1 X52.502 Y84.293 E14.07074
G1 X52.323 Y83.524 E14.11013
G1 X52.223 Y82.74 E14.14956
G1 X52.2 Y82.145 E14.17927
G1 X52.2 Y42.379 E16.1632
G1 X52.24 Y41.59 E16.20262
G1 X52.359 Y40.81 E16.24198
G1 X52.557 Y40.045 E16.2814
G1 X52.831 Y39.305 E16.32077
G1 X53.179 Y38.596 E16.36018
G1 X53.597 Y37.925 E16.39962
G0 F3600 X53.994 Y38.056
G1 F1800 X54.475 Y37.456 E16.43798
G1 X54.884 Y37.029 E16.46748
G1 X55.456 Y36.515 E16.50585
G1 X56.078 Y36.062 E16.54424
G1 X56.743 Y35.676 E16.5826
G1 X57.445 Y35.361 E16.62098
G1 X58.176 Y35.121 E16.65937
G1 X58.927 Y34.958 E16.69771
G1 X59.692 Y34.874 E16.7361
G1 X60.117 Y34.862 E16.75732
G1 X159.883 Y34.862 E21.73466
G1 X160.651 Y34.902 E21.77303
G1 X161.411 Y35.021 E21.81141
G1 X162.154 Y35.219 E21.84977
G1 X162.873 Y35.493 E21.88816
G1 X163.559 Y35.84 E21.92651
G1 X164.206 Y36.256 E21.96489
G1 X164.806 Y36.737 E22.00325
G1 X165.233 Y37.146 E22.03275
G1 X165.747 Y37.718 E22.07112
G1 X166.2 Y38.34 E22.10951
G1 X166.586 Y39.005 E22.14787
G1 X166.901 Y39.707 E22.18626
G1 X167.141 Y40.438 E22.22464
G1 X167.304 Y41.189 E22.26298
G1 X167.388 Y41.954 E22.30138
G1 X167.4 Y42.379 E22.32259
G1 X167.4 Y82.145 E24.30652
G1 X167.36 Y82.913 E24.34489
G1 X167.241 Y83.673 E24.38327
G1 X167.043 Y84.416 E24.42163
G1 X166.769 Y85.135 E24.46002
G1 X166.422 Y85.821 E24.49837
G1 X166.006 Y86.468 E24.53675
G1 X165.525 Y87.068 E24.57511
G1 X165.116 Y87.495 E24.60461
G1 X164.544 Y88.009 E24.64298
G1 X163.922 Y88.462 E24.68137
G1 X163.257 Y88.848 E24.71973
G1 X162.555 Y89.163 E24.75812
G1 X161.824 Y89.403 E24.7965
G1 X161.073 Y89.566 E24.83484
G1 X160.308 Y89.65 E24.87324
G1 X159.883 Y89.662 E24.89445
G1 X60.117 Y89.662 E29.87179
G1 X59.349 Y89.622 E29.91016
G1 X58.589 Y89.503 E29.94854
G1 X57.846 Y89.305 E29.9869
G1 X57.127 Y89.031 E30.02529
G1 X56.441 Y88.684 E30.06364
G1 X55.794 Y88.268 E30.10202
G1 X55.194 Y87.787 E30.14038
G1 X54.767 Y87.378 E30.16988
G1 X54.253 Y86.806 E30.20825
G1 X53.8 Y86.184 E30.24664
G1 X53.414 Y85.519 E30.285
G1 X53.099 Y84.817 E30.32339
G1 X52.859 Y84.086 E30.36177
G1 X52.696 Y83.335 E30.40011
G1 X52.612 Y82.57 E30.43851
G1 X52.6 Y82.145 E30.45972
G1 X52.6 Y42.379 E32.44365
G1 X52.64 Y41.611 E32.48202
G1 X52.759 Y40.851 E32.5204
G1 X52.957 Y40.108 E32.55876
G1 X53.231 Y39.389 E32.59715
G1 X53.578 Y38.703 E32.6355
G1 X53.994 Y38.056 E32.67388
G0 F3600 X54.392 Y38.19
G1 F1800 X55.05 Y37.429 E32.72407
G1 X55.167 Y37.312 E32.73232
G1 X55.724 Y36.812 E32.76967
G1 X56.33 Y36.375 E32.80694
G1 X56.98 Y36.004 E32.84428
G1 X57.666 Y35.705 E32.88161
G1 X58.38 Y35.481 E32.91895
G1 X59.113 Y35.334 E32.95625
G1 X60.117 Y35.262 E33.00646
G1 X159.883 Y35.262 E37.98381
G1 X160.63 Y35.302 E38.02113
G1 X161.368 Y35.421 E38.05843
G1 X162.09 Y35.619 E38.09578
G1 X162.786 Y35.892 E38.13308
G1 X163.449 Y36.239 E38.17041
G1 X164.072 Y36.654 E38.20776
G1 X164.833 Y37.312 E38.25795
G1 X164.95 Y37.429 E38.2662
G1 X165.45 Y37.986 E38.30354
G1 X165.887 Y38.592 E38.34082
G1 X166.258 Y39.242 E38.37816
G1 X166.557 Y39.928 E38.41549
G1 X166.781 Y40.642 E38.45283
G1 X166.928 Y41.375 E38.49012
G1 X167 Y42.379 E38.54034
G1 X167 Y82.145 E40.52428
G1 X166.96 Y82.892 E40.5616
G1 X166.841 Y83.63 E40.59889
G1 X166.643 Y84.352 E40.63624
G1 X166.37 Y85.048 E40.67354
G1 X166.023 Y85.711 E40.71087
G1 X165.608 Y86.334 E40.74822
G1 X164.95 Y87.095 E40.79841
G1 X164.833 Y87.212 E40.80667
G1 X164.276 Y87.712 E40.84401
G1 X163.67 Y88.149 E40.88128
G1 X163.02 Y88.52 E40.91862
G1 X162.334 Y88.819 E40.95596
G1 X161.62 Y89.043 E40.99329
G1 X160.887 Y89.19 E41.03059
G1 X159.883 Y89.262 E41.08081
G1 X60.117 Y89.262 E46.05815
G1 X59.37 Y89.222 E46.09547
G1 X58.632 Y89.103 E46.13277
G1 X57.91 Y88.905 E46.17012
G1 X57.214 Y88.632 E46.20742
G1 X56.551 Y88.285 E46.24475
G1 X55.928 Y87.87 E46.2821
G1 X55.167 Y87.212 E46.33229
G1 X55.05 Y87.095 E46.34054
G1 X54.55 Y86.538 E46.37789
G1 X54.113 Y85.932 E46.41516
G1 X53.742 Y85.282 E46.4525
G1 X53.443 Y84.596 E46.48983
G1 X53.219 Y83.882 E46.52717
G1 X53.072 Y83.149 E46.56447
G1 X53 Y82.145 E46.61468
G1 X53 Y42.379 E48.59862
G1 X53.04 Y41.632 E48.63594
G1 X53.159 Y40.894 E48.67323
G1 X53.357 Y40.172 E48.71058
G1 X53.63 Y39.476 E48.74788
G1 X53.977 Y38.813 E48.78522
G1 X54.392 Y38.19 E48.82256
G0 F3600 X54.789 Y38.329
G1 F1800 X55.333 Y37.712 E48.8636
G1 X55.45 Y37.595 E48.87186
G1 X55.991 Y37.111 E48.90807
G1 X56.582 Y36.688 E48.94433
G1 X57.216 Y36.334 E48.98056
G1 X57.885 Y36.051 E49.0168
G1 X58.581 Y35.843 E49.05304
G1 X59.296 Y35.713 E49.0893
G1 X60.117 Y35.662 E49.13034
G1 X159.883 Y35.662 E54.10768
G1 X160.608 Y35.702 E54.14391
G1 X161.325 Y35.821 E54.18017
G1 X162.024 Y36.019 E54.21641
G1 X162.697 Y36.292 E54.25265
G1 X163.336 Y36.637 E54.28888
G1 X163.933 Y37.051 E54.32512
G1 X164.55 Y37.595 E54.36616
G1 X164.667 Y37.712 E54.37441
G1 X165.151 Y38.253 E54.41063
G1 X165.574 Y38.844 E54.44689
G1 X165.928 Y39.478 E54.48312
G1 X166.211 Y40.147 E54.51936
G1 X166.419 Y40.843 E54.5556
G1 X166.549 Y41.558 E54.59185
G1 X166.6 Y42.379 E54.63289
G1 X166.6 Y82.145 E56.61683
G1 X166.56 Y82.87 E56.65305
G1 X166.441 Y83.587 E56.68931
G1 X166.243 Y84.286 E56.72556
G1 X165.97 Y84.959 E56.76179
G1 X165.625 Y85.598 E56.79802
G1 X165.211 Y86.195 E56.83427
G1 X164.667 Y86.812 E56.8753
G1 X164.55 Y86.929 E56.88356
G1 X164.009 Y87.413 E56.91977
G1 X163.418 Y87.836 E56.95603
G1 X162.784 Y88.19 E56.99226
G1 X162.115 Y88.473 E57.0285
G1 X161.419 Y88.681 E57.06474
G1 X160.704 Y88.811 E57.101
G1 X159.883 Y88.862 E57.14204
G1 X60.117 Y88.862 E62.11938
G1 X59.392 Y88.822 E62.15561
G1 X58.675 Y88.703 E62.19187
G1 X57.976 Y88.505 E62.22811
G1 X57.303 Y88.232 E62.26435
G1 X56.664 Y87.887 E62.30058
G1 X56.067 Y87.473 E62.33682
G1 X55.45 Y86.929 E62.37786
G1 X55.333 Y86.812 E62.38612
G1 X54.849 Y86.271 E62.42233
G1 X54.426 Y85.68 E62.45859
G1 X54.072 Y85.046 E62.49482
G1 X53.789 Y84.377 E62.53106
G1 X53.581 Y83.681 E62.5673
G1 X53.451 Y82.966 E62.60355
G1 X53.4 Y82.145 E62.64459
G1 X53.4 Y42.379 E64.62853
G1 X53.44 Y41.654 E64.66475
G1 X53.559 Y40.937 E64.70101
G1 X53.757 Y40.238 E64.73726
G1 X54.03 Y39.565 E64.77349
G1 X54.375 Y38.926 E64.80972
G1 X54.789 Y38.329 E64.84597
G0 F3600 X54.774 Y39.044
G1 F1800 X55.185 Y38.473 E64.88107
G1 X55.616 Y37.995 E64.91318
G1 X55.733 Y37.878 E64.92143
G1 X56.258 Y37.409 E64.95655
G1 X56.833 Y37.003 E64.99167
G1 X57.451 Y36.665 E65.02681
G1 X58.102 Y36.398 E65.06192
G1 X58.78 Y36.208 E65.09705
G1 X59.475 Y36.095 E65.13217
G1 X60.117 Y36.062 E65.16425
G1 X159.883 Y36.062 E70.14159
G1 X160.586 Y36.102 E70.17672
G1 X161.28 Y36.221 E70.21185
G1 X161.955 Y36.419 E70.24695
G1 X162.604 Y36.691 E70.28205
G1 X163.218 Y37.036 E70.31719
G1 X163.789 Y37.447 E70.35229
G1 X164.267 Y37.878 E70.3844
G1 X164.384 Y37.995 E70.39265
G1 X164.853 Y38.52 E70.42778
G1 X165.259 Y39.095 E70.46289
G1 X165.597 Y39.713 E70.49804
G1 X165.864 Y40.364 E70.53314
G1 X166.054 Y41.042 E70.56827
G1 X166.167 Y41.737 E70.6034
G1 X166.2 Y42.379 E70.63547
G1 X166.2 Y82.145 E72.6194
G1 X166.16 Y82.848 E72.65453
G1 X166.041 Y83.542 E72.68966
G1 X165.843 Y84.217 E72.72476
G1 X165.571 Y84.866 E72.75986
G1 X165.226 Y85.48 E72.795
G1 X164.815 Y86.051 E72.8301
G1 X164.384 Y86.529 E72.86221
G1 X164.267 Y86.646 E72.87047
G1 X163.742 Y87.115 E72.90559
G1 X163.167 Y87.521 E72.9407
G1 X162.549 Y87.859 E72.97585
G1 X161.898 Y88.126 E73.01095
G1 X161.22 Y88.316 E73.04608
G1 X160.525 Y88.429 E73.08121
G1 X159.883 Y88.462 E73.11328
G1 X60.117 Y88.462 E78.09063
G1 X59.414 Y88.422 E78.12576
G1 X58.72 Y88.303 E78.16089
G1 X58.045 Y88.105 E78.19598
G1 X57.396 Y87.833 E78.23109
G1 X56.782 Y87.488 E78.26622
G1 X56.211 Y87.077 E78.30132
G1 X55.733 Y86.646 E78.33343
G1 X55.616 Y86.529 E78.34169
G1 X55.147 Y86.004 E78.37681
G1 X54.741 Y85.429 E78.41193
G1 X54.403 Y84.811 E78.44707
G1 X54.136 Y84.16 E78.48217
G1 X53.946 Y83.482 E78.5173
G1 X53.833 Y82.787 E78.55243
G1 X53.8 Y82.145 E78.5845
G1 X53.8 Y42.379 E80.56844
G1 X53.84 Y41.676 E80.60357
G1 X53.959 Y40.982 E80.6387
G1 X54.157 Y40.307 E80.67379
G1 X54.429 Y39.658 E80.7089
G1 X54.774 Y39.044 E80.74404
G0 F3600 X55.172 Y39.165
G1 F1800 X55.582 Y38.621 E80.77802
G1 X56.016 Y38.161 E80.80957
G1 X56.525 Y37.708 E80.84357
G1 X57.083 Y37.319 E80.8775
G1 X57.683 Y36.997 E80.91148
G1 X58.317 Y36.748 E80.94546
G1 X58.976 Y36.575 E80.97945
G1 X59.65 Y36.481 E81.0134
G1 X60.117 Y36.462 E81.03672
G1 X159.883 Y36.462 E86.01406
G1 X160.563 Y36.502 E86.04805
G1 X161.233 Y36.621 E86.082
G1 X161.885 Y36.818 E86.11598
G1 X162.509 Y37.09 E86.14994
G1 X163.097 Y37.434 E86.18393
G1 X163.641 Y37.844 E86.21791
G1 X164.101 Y38.278 E86.24946
G1 X164.554 Y38.787 E86.28346
G1 X164.943 Y39.345 E86.31739
G1 X165.265 Y39.945 E86.35137
G1 X165.514 Y40.579 E86.38535
G1 X165.687 Y41.238 E86.41934
G1 X165.781 Y41.912 E86.45329
G1 X165.8 Y42.379 E86.47661
G1 X165.8 Y82.145 E88.46054
G1 X165.76 Y82.825 E88.49453
G1 X165.641 Y83.495 E88.52848
G1 X165.444 Y84.147 E88.56246
G1 X165.172 Y84.771 E88.59642
G1 X164.828 Y85.359 E88.63041
G1 X164.418 Y85.903 E88.66439
G1 X163.984 Y86.363 E88.69594
G1 X163.475 Y86.816 E88.72994
G1 X162.917 Y87.205 E88.76387
G1 X162.317 Y87.527 E88.79784
G1 X161.683 Y87.776 E88.83183
G1 X161.024 Y87.949 E88.86582
G1 X160.35 Y88.043 E88.89977
G1 X159.883 Y88.062 E88.92309
G1 X60.117 Y88.062 E93.90043
G1 X59.437 Y88.022 E93.93442
G1 X58.767 Y87.903 E93.96837
G1 X58.115 Y87.706 E94.00235
G1 X57.491 Y87.434 E94.03631
G1 X56.903 Y87.09 E94.0703
G1 X56.359 Y86.68 E94.10428
G1 X55.899 Y86.246 E94.13583
G1 X55.446 Y85.737 E94.16983
G1 X55.057 Y85.179 E94.20376
G1 X54.735 Y84.579 E94.23774
G1 X54.486 Y83.945 E94.27172
G1 X54.313 Y83.286 E94.30571
G1 X54.219 Y82.612 E94.33966
G1 X54.2 Y82.145 E94.36298
G1 X54.2 Y42.379 E96.34691
G1 X54.24 Y41.699 E96.3809
G1 X54.359 Y41.029 E96.41485
G1 X54.556 Y40.377 E96.44883
G1 X54.828 Y39.753 E96.48279
G1 X55.172 Y39.165 E96.51678
G0 F3600 X55.57 Y39.291
G1 F1800 X56.182 Y38.561 E96.5643
G1 X56.299 Y38.444 E96.57256
G1 X56.791 Y38.008 E96.60535
G1 X57.332 Y37.636 E96.63811
G1 X57.914 Y37.332 E96.67087
G1 X58.529 Y37.101 E96.70364
G1 X59.168 Y36.946 E96.73645
G1 X60.117 Y36.862 E96.78398
G1 X159.883 Y36.862 E101.76132
G1 X160.539 Y36.902 E101.79411
G1 X161.185 Y37.021 E101.82688
G1 X161.812 Y37.218 E101.85967
G1 X162.41 Y37.49 E101.89245
G1 X162.971 Y37.832 E101.92523
G1 X163.701 Y38.444 E101.97275
G1 X163.818 Y38.561 E101.98101
G1 X164.254 Y39.053 E102.0138
G1 X164.626 Y39.594 E102.04656
G1 X164.93 Y40.176 E102.07932
G1 X165.161 Y40.791 E102.11209
G1 X165.316 Y41.43 E102.1449
G1 X165.4 Y42.379 E102.19243
G1 X165.4 Y82.145 E104.17636
G1 X165.36 Y82.801 E104.20915
G1 X165.241 Y83.447 E104.24192
G1 X165.044 Y84.074 E104.27471
G1 X164.772 Y84.672 E104.30749
G1 X164.43 Y85.233 E104.34027
G1 X163.818 Y85.963 E104.38779
G1 X163.701 Y86.08 E104.39605
G1 X163.209 Y86.516 E104.42884
G1 X162.668 Y86.888 E104.4616
G1 X162.086 Y87.192 E104.49436
G1 X161.471 Y87.423 E104.52713
G1 X160.832 Y87.578 E104.55994
G1 X159.883 Y87.662 E104.60747
G1 X60.117 Y87.662 E109.58482
G1 X59.461 Y87.622 E109.6176
G1 X58.815 Y87.503 E109.65038
G1 X58.188 Y87.306 E109.68316
G1 X57.59 Y87.034 E109.71594
G1 X57.029 Y86.692 E109.74872
G1 X56.299 Y86.08 E109.79624
G1 X56.182 Y85.963 E109.8045
G1 X55.746 Y85.471 E109.8373
G1 X55.374 Y84.93 E109.87005
G1 X55.07 Y84.348 E109.90281
G1 X54.839 Y83.733 E109.93559
G1 X54.684 Y83.094 E109.96839
G1 X54.6 Y82.145 E110.01592
G1 X54.6 Y42.379 E111.99986
G1 X54.64 Y41.723 E112.03264
G1 X54.759 Y41.077 E112.06542
G1 X54.956 Y40.45 E112.0982
G1 X55.228 Y39.852 E112.13098
G1 X55.57 Y39.291 E112.16376
G0 F3600 X55.967 Y39.423
G1 F1800 X56.464 Y38.843 E112.20187
G1 X56.581 Y38.726 E112.21012
G1 X57.056 Y38.309 E112.24166
G1 X57.579 Y37.954 E112.27319
G1 X58.143 Y37.668 E112.30474
G1 X58.738 Y37.456 E112.33625
G1 X59.356 Y37.32 E112.36782
G1 X60.117 Y37.262 E112.4059
G1 X159.883 Y37.262 E117.38325
G1 X160.514 Y37.302 E117.41479
G1 X161.135 Y37.421 E117.44633
G1 X161.735 Y37.618 E117.47784
G1 X162.307 Y37.889 E117.50942
G1 X162.839 Y38.229 E117.54092
G1 X163.419 Y38.726 E117.57902
G1 X163.536 Y38.843 E117.58728
G1 X163.953 Y39.318 E117.61881
G1 X164.308 Y39.841 E117.65035
G1 X164.594 Y40.405 E117.6819
G1 X164.806 Y41 E117.71341
G1 X164.942 Y41.618 E117.74498
G1 X165 Y42.379 E117.78306
G1 X165 Y82.145 E119.76699
G1 X164.96 Y82.776 E119.79854
G1 X164.841 Y83.397 E119.83008
G1 X164.644 Y83.997 E119.86159
G1 X164.373 Y84.569 E119.89317
G1 X164.033 Y85.101 E119.92466
G1 X163.536 Y85.681 E119.96277
G1 X163.419 Y85.798 E119.97103
G1 X162.944 Y86.215 E120.00256
G1 X162.421 Y86.57 E120.0341
G1 X161.857 Y86.856 E120.06564
G1 X161.262 Y87.068 E120.09716
G1 X160.644 Y87.204 E120.12873
G1 X159.883 Y87.262 E120.1668
G1 X60.117 Y87.262 E125.14415
G1 X59.486 Y87.222 E125.17569
G1 X58.865 Y87.103 E125.20724
G1 X58.265 Y86.906 E125.23875
G1 X57.693 Y86.635 E125.27032
G1 X57.161 Y86.295 E125.30182
G1 X56.581 Y85.798 E125.33993
G1 X56.464 Y85.681 E125.34818
G1 X56.047 Y85.206 E125.37972
G1 X55.692 Y84.683 E125.41125
G1 X55.406 Y84.119 E125.4428
G1 X55.194 Y83.524 E125.47432
G1 X55.058 Y82.906 E125.50589
G1 X55 Y82.145 E125.54396
G1 X55 Y42.379 E127.5279
G1 X55.04 Y41.748 E127.55944
G1 X55.159 Y41.127 E127.59099
G1 X55.356 Y40.527 E127.62249
G1 X55.627 Y39.955 E127.65407
G1 X55.967 Y39.423 E127.68557
G0 F3600 X56.365 Y39.56
G1 F1800 X56.747 Y39.126 E127.71441
