;FLAVOR:Marlin
;TIME:5261
;Filament used: 4.29908m
;Layer height: 0.15
;MINX:52.45
;MINY:37.703
;MINZ:0.3
;MAXX:167.55
;MAXY:106.303
;MAXZ:4.95
;Generated with Cura_SteamEngine 4.10.0
M140 S60
M105
M190 S60
M104 S200
M105
M109 S200
M82 ;absolute extrusion mode
G28 ;Home
G1 Z15.0 F6000 ;Move the platform down 15mm
;Prime the extruder
G92 E0
G1 F200 E3
G92 E0
G92 E0
G92 E0
G1 F1500 E-6.5
;LAYER_COUNT:32
;LAYER:0
M107
G0 F3600 X54.727 Y50.366 Z0.3
;TYPE:SKIRT
G1 F1500 E0
G1 F1800 X55.302 Y49.824 E0.03942
G1 X55.928 Y49.343 E0.07881
G1 X56.599 Y48.928 E0.11817
G1 X57.31 Y48.582 E0.15762
G1 X58.051 Y48.31 E0.197
G1 X58.816 Y48.115 E0.23639
G1 X59.597 Y47.998 E0.27579
G1 X60.142 Y47.963 E0.30303
G1 X60.654 Y47.915 E0.32869
G1 X61.144 Y47.749 E0.3545
G1 X61.605 Y47.456 E0.38175
G1 X61.992 Y47.038 E0.41017
G1 X62.26 Y46.538 E0.43847
G1 X62.38 Y46.068 E0.46267
G1 X62.387 Y45.986 E0.46678
G1 X62.404 Y45.395 E0.49628
G1 X62.466 Y44.607 E0.53571
G1 X62.608 Y43.83 E0.57512
G1 X62.827 Y43.072 E0.61448
G1 X63.122 Y42.339 E0.6539
G1 X63.49 Y41.64 E0.69331
G1 X63.926 Y40.982 E0.73269
G1 X64.427 Y40.371 E0.77211
G1 X64.807 Y39.98 E0.79931
G1 X64.924 Y39.868 E0.80739
G1 X65.522 Y39.352 E0.8468
G1 X66.168 Y38.899 E0.88616
G1 X66.857 Y38.513 E0.92557
G1 X67.582 Y38.199 E0.96498
G1 X68.334 Y37.959 E1.00436
G1 X69.107 Y37.798 E1.04376
G1 X69.893 Y37.715 E1.08319
G1 X70.318 Y37.703 E1.1044
G1 X147.027 Y37.703 E4.93143
G1 X147.816 Y37.743 E4.97084
G1 X148.596 Y37.862 E5.01021
G1 X149.361 Y38.06 E5.04963
G1 X150.101 Y38.334 E5.089
G1 X150.81 Y38.682 E5.1284
G1 X151.481 Y39.1 E5.16784
G1 X152.105 Y39.583 E5.20721
G1 X152.519 Y39.964 E5.23528
G1 X152.636 Y40.08 E5.2435
G1 X153.168 Y40.664 E5.28291
G1 X153.638 Y41.298 E5.32229
G1 X154.041 Y41.977 E5.36168
G1 X154.374 Y42.693 E5.40107
G1 X154.633 Y43.439 E5.44047
G1 X154.815 Y44.207 E5.47985
G1 X154.919 Y44.99 E5.51926
G1 X154.944 Y45.588 E5.54912
G1 X154.959 Y46.12 E5.57567
G1 X155.062 Y46.785 E5.60924
G1 X155.275 Y47.473 E5.64517
G1 X155.582 Y48.106 E5.68027
G1 X155.975 Y48.675 E5.71477
G1 X156.461 Y49.195 E5.75028
G1 X156.998 Y49.622 E5.78451
G1 X157.612 Y49.974 E5.81982
G1 X158.249 Y50.224 E5.85396
G1 X158.917 Y50.38 E5.88818
G1 X159.825 Y50.439 E5.93358
G1 X160.613 Y50.498 E5.973
G1 X161.39 Y50.637 E6.01238
G1 X162.15 Y50.853 E6.0518
G1 X162.883 Y51.145 E6.09116
G1 X163.584 Y51.509 E6.13057
G1 X164.244 Y51.943 E6.16998
G1 X164.857 Y52.441 E6.20938
G1 X165.248 Y52.818 E6.23648
G1 X165.361 Y52.935 E6.2446
G1 X165.88 Y53.53 E6.28399
G1 X166.336 Y54.175 E6.3234
G1 X166.725 Y54.862 E6.36278
G1 X167.042 Y55.585 E6.40217
G1 X167.285 Y56.337 E6.4416
G1 X167.45 Y57.109 E6.48098
G1 X167.536 Y57.894 E6.52038
G1 X167.55 Y58.354 E6.54334
G1 X167.55 Y98.386 E8.54054
G1 X167.51 Y99.175 E8.57996
G1 X167.391 Y99.955 E8.61932
G1 X167.193 Y100.72 E8.65875
G1 X166.919 Y101.46 E8.69811
G1 X166.571 Y102.169 E8.73752
G1 X166.153 Y102.84 E8.77696
G1 X165.67 Y103.464 E8.81633
G1 X165.265 Y103.901 E8.84605
G1 X165.148 Y104.018 E8.85431
G1 X164.562 Y104.548 E8.89373
G1 X163.926 Y105.015 E8.93309
G1 X163.246 Y105.416 E8.97248
G1 X162.528 Y105.746 E9.0119
G1 X161.781 Y106.001 E9.05128
G1 X161.012 Y106.18 E9.09067
G1 X160.228 Y106.28 E9.1301
G1 X159.633 Y106.303 E9.15981
G1 X60.367 Y106.303 E14.11221
G1 X59.578 Y106.263 E14.15162
G1 X58.798 Y106.144 E14.19099
G1 X58.033 Y105.946 E14.23041
G1 X57.293 Y105.672 E14.26978
G1 X56.584 Y105.324 E14.30918
G1 X55.913 Y104.906 E14.34862
G1 X55.289 Y104.423 E14.38799
G1 X54.852 Y104.018 E14.41772
G1 X54.735 Y103.901 E14.42597
G1 X54.205 Y103.315 E14.46539
G1 X53.738 Y102.679 E14.50476
G1 X53.337 Y101.999 E14.54414
G1 X53.007 Y101.281 E14.58357
G1 X52.752 Y100.534 E14.62294
G1 X52.573 Y99.765 E14.66234
G1 X52.473 Y98.981 E14.70177
G1 X52.45 Y98.386 E14.73147
G1 X52.45 Y55.877 E16.85226
G1 X52.49 Y55.088 E16.89167
G1 X52.609 Y54.308 E16.93103
G1 X52.807 Y53.543 E16.97046
G1 X53.081 Y52.803 E17.00983
G1 X53.429 Y52.094 E17.04923
G1 X53.847 Y51.423 E17.08867
G1 X54.33 Y50.799 E17.12804
G1 X54.727 Y50.366 E17.15735
G0 F3600 X55.016 Y50.643
G1 F1800 X55.576 Y50.116 E17.19571
G1 X56.188 Y49.649 E17.23412
G1 X56.845 Y49.249 E17.27249
G1 X57.54 Y48.919 E17.31088
G1 X58.265 Y48.663 E17.34924
G1 X59.013 Y48.484 E17.38761
G1 X60.153 Y48.363 E17.4448
G1 X60.733 Y48.307 E17.47387
G1 X61.214 Y48.155 E17.49904
G1 X61.686 Y47.895 E17.52592
G1 X62.081 Y47.56 E17.55176
G1 X62.39 Y47.164 E17.57682
G1 X62.628 Y46.697 E17.60297
G1 X62.765 Y46.202 E17.6286
G1 X62.787 Y46.019 E17.63779
G1 X62.804 Y45.406 E17.66839
G1 X62.866 Y44.639 E17.70678
G1 X63.007 Y43.883 E17.74514
G1 X63.225 Y43.146 E17.78349
G1 X63.519 Y42.435 E17.82187
G1 X63.885 Y41.759 E17.86023
G1 X64.32 Y41.124 E17.89863
G1 X65.084 Y40.269 E17.95583
G1 X65.201 Y40.157 E17.96391
G1 X65.783 Y39.655 E18.00226
G1 X66.415 Y39.216 E18.04065
G1 X67.089 Y38.845 E18.07903
G1 X67.797 Y38.546 E18.11737
G1 X68.533 Y38.322 E18.15576
G1 X69.288 Y38.175 E18.19413
G1 X70.318 Y38.103 E18.24564
G1 X147.027 Y38.103 E22.07267
G1 X147.795 Y38.143 E22.11104
G1 X148.555 Y38.262 E22.14942
G1 X149.298 Y38.46 E22.18778
G1 X150.017 Y38.734 E22.22617
G1 X150.703 Y39.081 E22.26452
G1 X151.35 Y39.497 E22.3029
G1 X151.95 Y39.978 E22.34126
G1 X152.354 Y40.364 E22.36914
G1 X152.871 Y40.933 E22.40749
G1 X153.327 Y41.553 E22.44589
G1 X153.716 Y42.217 E22.48428
G1 X154.033 Y42.917 E22.52262
G1 X154.276 Y43.647 E22.56101
G1 X154.443 Y44.398 E22.59939
G1 X154.53 Y45.162 E22.63775
G1 X154.545 Y45.901 E22.67463
G1 X154.626 Y46.657 E22.71256
G1 X154.746 Y47.16 E22.73836
G1 X155.002 Y47.851 E22.77512
G1 X155.232 Y48.299 E22.80025
G1 X155.517 Y48.734 E22.82619
G1 X155.998 Y49.303 E22.86336
G1 X156.371 Y49.649 E22.88875
G1 X156.78 Y49.958 E22.91432
G1 X157.437 Y50.334 E22.95209
G1 X157.905 Y50.531 E22.97742
G1 X158.413 Y50.685 E23.0039
G1 X159.148 Y50.811 E23.04111
G1 X159.815 Y50.839 E23.07441
G1 X160.582 Y50.898 E23.11279
G1 X161.339 Y51.035 E23.15117
G1 X162.077 Y51.251 E23.18954
G1 X162.789 Y51.542 E23.22791
G1 X163.467 Y51.905 E23.26628
G1 X164.104 Y52.337 E23.30468
G1 X164.96 Y53.096 E23.36175
G1 X165.073 Y53.213 E23.36987
G1 X165.578 Y53.793 E23.40824
G1 X166.02 Y54.423 E23.44663
G1 X166.394 Y55.095 E23.485
G1 X166.696 Y55.802 E23.52336
G1 X166.923 Y56.537 E23.56173
G1 X167.073 Y57.291 E23.60009
G1 X167.15 Y58.354 E23.65326
G1 X167.15 Y98.386 E25.65047
G1 X167.11 Y99.154 E25.68883
G1 X166.991 Y99.914 E25.72721
G1 X166.793 Y100.657 E25.76557
G1 X166.519 Y101.376 E25.80396
G1 X166.172 Y102.062 E25.84231
G1 X165.756 Y102.709 E25.88069
G1 X165.275 Y103.309 E25.91906
G1 X164.866 Y103.736 E25.94855
G1 X164.294 Y104.25 E25.98692
G1 X163.672 Y104.703 E26.02531
G1 X163.007 Y105.089 E26.06367
G1 X162.305 Y105.404 E26.10206
G1 X161.574 Y105.644 E26.14044
G1 X160.823 Y105.807 E26.17878
G1 X160.058 Y105.891 E26.21718
G1 X159.633 Y105.903 E26.23839
G1 X60.367 Y105.903 E31.19079
G1 X59.599 Y105.863 E31.22916
G1 X58.839 Y105.744 E31.26754
G1 X58.096 Y105.546 E31.3059
G1 X57.377 Y105.272 E31.34429
G1 X56.691 Y104.925 E31.38264
G1 X56.044 Y104.509 E31.42102
G1 X55.444 Y104.028 E31.45938
G1 X55.017 Y103.619 E31.48888
G1 X54.503 Y103.047 E31.52725
G1 X54.05 Y102.425 E31.56564
G1 X53.664 Y101.76 E31.604
G1 X53.349 Y101.058 E31.64238
G1 X53.109 Y100.327 E31.68077
G1 X52.946 Y99.576 E31.71911
G1 X52.862 Y98.811 E31.75751
G1 X52.85 Y98.386 E31.77872
G1 X52.85 Y55.877 E33.8995
G1 X52.89 Y55.109 E33.93787
G1 X53.009 Y54.349 E33.97625
G1 X53.207 Y53.606 E34.01461
G1 X53.481 Y52.887 E34.053
G1 X53.828 Y52.201 E34.09135
G1 X54.244 Y51.554 E34.12972
G1 X54.904 Y50.76 E34.18124
G1 X55.016 Y50.643 E34.18932
G0 F3600 X55.305 Y50.919
G1 F1800 X55.851 Y50.408 E34.22663
G1 X56.448 Y49.957 E34.26395
G1 X57.089 Y49.572 E34.30126
G1 X57.768 Y49.258 E34.33858
G1 X58.477 Y49.019 E34.37591
G1 X59.207 Y48.856 E34.41322
G1 X60.164 Y48.763 E34.46119
G1 X60.667 Y48.725 E34.48636
G1 X61.229 Y48.581 E34.51531
G1 X61.762 Y48.323 E34.54485
G1 X62.248 Y47.955 E34.57526
G1 X62.631 Y47.52 E34.60418
G1 X62.944 Y46.975 E34.63553
G1 X63.126 Y46.424 E34.66448
G1 X63.186 Y46.038 E34.68397
G1 X63.204 Y45.417 E34.71497
G1 X63.265 Y44.672 E34.75226
G1 X63.405 Y43.937 E34.78959
G1 X63.623 Y43.221 E34.82693
G1 X63.916 Y42.533 E34.86424
G1 X64.281 Y41.88 E34.90156
G1 X64.713 Y41.269 E34.93889
G1 X65.36 Y40.558 E34.98685
G1 X65.477 Y40.446 E34.99493
G1 X66.045 Y39.959 E35.03226
G1 X66.661 Y39.534 E35.0696
G1 X67.319 Y39.178 E35.10692
G1 X68.011 Y38.894 E35.14424
G1 X68.729 Y38.686 E35.18153
G1 X69.466 Y38.555 E35.21888
G1 X70.318 Y38.503 E35.26146
G1 X147.027 Y38.503 E39.08849
G1 X147.774 Y38.543 E39.12581
G1 X148.512 Y38.662 E39.16311
G1 X149.234 Y38.86 E39.20046
G1 X149.93 Y39.133 E39.23776
G1 X150.593 Y39.48 E39.27509
G1 X151.216 Y39.895 E39.31244
G1 X151.955 Y40.532 E39.36111
G1 X152.072 Y40.648 E39.36933
G1 X152.575 Y41.202 E39.40666
G1 X153.015 Y41.807 E39.44399
G1 X153.388 Y42.455 E39.48129
G1 X153.69 Y43.14 E39.51864
G1 X153.917 Y43.853 E39.55597
G1 X154.067 Y44.585 E39.59325
G1 X154.144 Y45.591 E39.64358
G1 X154.161 Y46.188 E39.67338
G1 X154.232 Y46.722 E39.70025
G1 X154.351 Y47.234 E39.72648
G1 X154.529 Y47.762 E39.75428
G1 X154.761 Y48.271 E39.78219
G1 X155.194 Y48.971 E39.82325
G1 X155.528 Y49.386 E39.84983
G1 X155.919 Y49.784 E39.87766
G1 X156.329 Y50.126 E39.9043
G1 X156.801 Y50.446 E39.93275
G1 X157.263 Y50.694 E39.95891
G1 X157.77 Y50.907 E39.98634
G1 X158.301 Y51.07 E40.01406
G1 X158.794 Y51.171 E40.03916
G1 X159.354 Y51.228 E40.06725
G1 X159.806 Y51.239 E40.0898
G1 X160.552 Y51.297 E40.12713
G1 X161.287 Y51.434 E40.16443
G1 X162.003 Y51.649 E40.20173
G1 X162.693 Y51.939 E40.23907
G1 X163.348 Y52.301 E40.27641
G1 X163.96 Y52.731 E40.31373
G1 X164.672 Y53.374 E40.36159
G1 X164.785 Y53.491 E40.3697
G1 X165.275 Y54.056 E40.40702
G1 X165.702 Y54.67 E40.44433
G1 X166.061 Y55.327 E40.48168
G1 X166.348 Y56.017 E40.51896
G1 X166.56 Y56.735 E40.55631
G1 X166.694 Y57.471 E40.59364
G1 X166.75 Y58.354 E40.63778
G1 X166.75 Y98.386 E42.63498
G1 X166.71 Y99.133 E42.6723
G1 X166.591 Y99.871 E42.7096
G1 X166.393 Y100.593 E42.74695
G1 X166.12 Y101.289 E42.78425
G1 X165.773 Y101.952 E42.82158
G1 X165.358 Y102.575 E42.85893
G1 X164.7 Y103.336 E42.90912
G1 X164.583 Y103.453 E42.91737
G1 X164.026 Y103.953 E42.95472
G1 X163.42 Y104.39 E42.99199
G1 X162.77 Y104.761 E43.02933
G1 X162.084 Y105.06 E43.06666
G1 X161.37 Y105.284 E43.104
G1 X160.637 Y105.431 E43.1413
G1 X159.633 Y105.503 E43.19151
G1 X60.367 Y105.503 E48.14391
G1 X59.62 Y105.463 E48.18124
G1 X58.882 Y105.344 E48.21853
G1 X58.16 Y105.146 E48.25588
G1 X57.464 Y104.873 E48.29318
G1 X56.801 Y104.526 E48.33051
G1 X56.178 Y104.111 E48.36786
G1 X55.417 Y103.453 E48.41805
G1 X55.3 Y103.336 E48.42631
G1 X54.8 Y102.779 E48.46365
G1 X54.363 Y102.173 E48.50092
G1 X53.992 Y101.523 E48.53826
G1 X53.693 Y100.837 E48.5756
G1 X53.469 Y100.123 E48.61293
G1 X53.322 Y99.39 E48.65023
G1 X53.25 Y98.386 E48.70045
G1 X53.25 Y55.877 E50.82123
G1 X53.29 Y55.13 E50.85855
G1 X53.409 Y54.392 E50.89584
G1 X53.607 Y53.67 E50.9332
G1 X53.88 Y52.974 E50.97049
G1 X54.227 Y52.311 E51.00783
G1 X54.642 Y51.688 E51.04517
G1 X55.193 Y51.036 E51.08776
G1 X55.305 Y50.919 E51.09584
G0 F3600 X55.594 Y51.196
G1 F1800 X56.125 Y50.7 E51.13209
G1 X56.706 Y50.265 E51.1683
G1 X57.332 Y49.896 E51.20456
G1 X57.995 Y49.599 E51.2408
G1 X58.686 Y49.376 E51.27703
G1 X59.398 Y49.231 E51.31328
G1 X60.175 Y49.163 E51.35219
G1 X60.73 Y49.12 E51.37996
G1 X61.218 Y49.006 E51.40497
G1 X61.685 Y48.82 E51.43004
G1 X62.127 Y48.563 E51.45555
G1 X62.52 Y48.249 E51.48065
G1 X62.863 Y47.877 E51.50589
G1 X63.235 Y47.294 E51.5404
G1 X63.434 Y46.816 E51.56623
G1 X63.555 Y46.326 E51.59141
G1 X63.587 Y46.047 E51.60542
G1 X63.604 Y45.429 E51.63626
G1 X63.664 Y44.705 E51.67251
G1 X63.804 Y43.992 E51.70876
G1 X64.021 Y43.299 E51.74499
G1 X64.313 Y42.634 E51.78122
G1 X64.676 Y42.005 E51.81745
G1 X65.106 Y41.419 E51.85372
G1 X65.637 Y40.847 E51.89265
G1 X65.754 Y40.735 E51.90073
G1 X66.306 Y40.263 E51.93697
G1 X66.906 Y39.854 E51.9732
G1 X67.547 Y39.513 E52.00942
G1 X68.222 Y39.245 E52.04565
G1 X68.923 Y39.052 E52.08193
G1 X69.64 Y38.938 E52.11815
G1 X70.318 Y38.903 E52.15202
G1 X147.027 Y38.903 E55.97904
G1 X147.752 Y38.943 E56.01527
G1 X148.469 Y39.062 E56.05153
G1 X149.168 Y39.26 E56.08778
G1 X149.841 Y39.533 E56.12401
G1 X150.48 Y39.878 E56.16024
G1 X151.077 Y40.292 E56.19648
G1 X151.674 Y40.816 E56.23611
G1 X151.791 Y40.932 E56.24433
G1 X152.278 Y41.471 E56.28058
G1 X152.702 Y42.06 E56.31678
G1 X153.06 Y42.693 E56.35306
G1 X153.346 Y43.361 E56.38932
G1 X153.556 Y44.056 E56.42554
G1 X153.689 Y44.77 E56.46177
G1 X153.744 Y45.593 E56.50292
G1 X153.76 Y46.19 E56.53272
G1 X153.836 Y46.786 E56.5627
G1 X153.968 Y47.352 E56.59169
G1 X154.161 Y47.92 E56.62162
G1 X154.402 Y48.448 E56.65058
G1 X154.69 Y48.945 E56.67923
G1 X155.041 Y49.429 E56.70906
G1 X155.415 Y49.852 E56.73723
G1 X155.86 Y50.265 E56.76752
G1 X156.335 Y50.623 E56.7972
G1 X156.826 Y50.921 E56.82585
G1 X157.355 Y51.175 E56.85513
G1 X157.9 Y51.373 E56.88406
G1 X158.498 Y51.525 E56.91484
G1 X159.071 Y51.608 E56.94372
G1 X159.796 Y51.639 E56.97993
G1 X160.52 Y51.696 E57.01616
G1 X161.234 Y51.833 E57.05243
G1 X161.928 Y52.047 E57.08866
G1 X162.594 Y52.336 E57.12488
G1 X163.224 Y52.697 E57.16111
G1 X163.811 Y53.125 E57.19735
G1 X164.384 Y53.652 E57.23619
G1 X164.497 Y53.769 E57.24431
G1 X164.972 Y54.318 E57.28053
G1 X165.384 Y54.917 E57.3168
G1 X165.728 Y55.557 E57.35305
G1 X165.999 Y56.231 E57.38929
G1 X166.195 Y56.93 E57.42551
G1 X166.312 Y57.647 E57.46175
G1 X166.35 Y58.354 E57.49707
G1 X166.35 Y98.386 E59.49428
G1 X166.31 Y99.111 E59.5305
G1 X166.191 Y99.828 E59.56677
G1 X165.993 Y100.527 E59.60301
G1 X165.72 Y101.2 E59.63924
G1 X165.375 Y101.839 E59.67547
G1 X164.961 Y102.436 E59.71172
G1 X164.417 Y103.053 E59.75276
G1 X164.3 Y103.17 E59.76101
G1 X163.759 Y103.654 E59.79723
G1 X163.168 Y104.077 E59.83349
G1 X162.534 Y104.431 E59.86971
G1 X161.865 Y104.714 E59.90595
G1 X161.169 Y104.922 E59.94219
G1 X160.454 Y105.052 E59.97845
G1 X159.633 Y105.103 E60.01949
G1 X60.367 Y105.103 E64.97189
G1 X59.642 Y105.063 E65.00812
G1 X58.925 Y104.944 E65.04438
G1 X58.226 Y104.746 E65.08062
G1 X57.553 Y104.473 E65.11686
G1 X56.914 Y104.128 E65.15309
G1 X56.317 Y103.714 E65.18933
G1 X55.7 Y103.17 E65.23037
G1 X55.583 Y103.053 E65.23862
G1 X55.099 Y102.512 E65.27484
G1 X54.676 Y101.921 E65.3111
G1 X54.322 Y101.287 E65.34733
G1 X54.039 Y100.618 E65.38357
G1 X53.831 Y99.922 E65.41981
G1 X53.701 Y99.207 E65.45606
G1 X53.65 Y98.386 E65.4971
G1 X53.65 Y55.877 E67.61788
G1 X53.69 Y55.152 E67.65411
G1 X53.809 Y54.435 E67.69037
G1 X54.007 Y53.736 E67.72662
G1 X54.28 Y53.063 E67.76285
G1 X54.625 Y52.424 E67.79908
G1 X55.039 Y51.827 E67.83532
G1 X55.482 Y51.313 E67.86918
G1 X55.594 Y51.196 E67.87726
G0 F3600 X55.883 Y51.473
G1 F1800 X56.398 Y50.993 E67.91238
G1 X56.964 Y50.574 E67.94751
G1 X57.574 Y50.222 E67.98265
G1 X58.22 Y49.942 E68.01778
G1 X58.893 Y49.737 E68.05288
G1 X59.585 Y49.609 E68.08799
G1 X60.187 Y49.562 E68.11811
G1 X60.773 Y49.518 E68.14743
G1 X61.337 Y49.389 E68.17629
G1 X61.853 Y49.183 E68.20401
G1 X62.358 Y48.89 E68.23314
G1 X62.803 Y48.532 E68.26163
G1 X63.178 Y48.124 E68.28928
G1 X63.491 Y47.662 E68.31712
G1 X63.749 Y47.123 E68.34694
G1 X63.91 Y46.584 E68.375
G1 X63.985 Y46.088 E68.40003
G1 X64.003 Y45.44 E68.43237
G1 X64.063 Y44.738 E68.46752
G1 X64.202 Y44.048 E68.50263
G1 X64.419 Y43.378 E68.53777
G1 X64.709 Y42.737 E68.57287
G1 X65.071 Y42.133 E68.608
G1 X65.499 Y41.574 E68.64313
G1 X65.914 Y41.136 E68.67323
G1 X66.031 Y41.024 E68.68131
